
;FLAVOR:Marlin
;TIME:0
;Filament used: 0m
;Layer height: 0
;MINX:0
;MINY:0
;MINZ:0
;MAXX:220
;MAXY:220
;MAXZ:250

; Stonehippo FlowControl Designs © 2022 by George White is licensed under CC BY-SA 4.0.
; To view a copy of this license, visit http://creativecommons.org/licenses/by-sa/4.0/

;Time to print!!!!!
;GCode created with FullControl - tell us what you're printing!
;info@fullcontrol.xyz or tag FullControlXYZ on Twitter/Instagram 

G28 ; home axes
M140 S70 ; set bed temp and continue
M105
M104 S200 ; set hotend temp and continue
M190 S70 ; set bed temp and wait
M105
M109 S200  ; set hotend temp and wait
G90 ; absolute coordinates
G21 ; set units to millimeters
M83 ; relative extrusion
M106 S255 ; set fan speed
M220 S80 ; set speed factor override percentage
M221 S100 ; set extrude factor override percentage
G0 F8000 X0.0 Y0.0 Z10.0
G1 F250 E20.7876
G0 F8000 X10.0 Y10.0 Z0.3
;-----
; END OF STARTING PROCEDURE
;-----

;-----
; START OF PRIMER PROCEDURE
;-----
G0 F8000 Y14.0 Z0.192
G1 F500 X110.0 E9.97804
G1 Y12.0 E0.199561
G1 X10.0 E9.97804
G1 Y14.0 E0.199561
G1 Y16.0 E0.199561
G1 X50.0 E3.99122
G1 Y38.5 E2.24506
;-----
; END OF PRIMER PROCEDURE
;-----

G1 F250 X51.2929 Y39.9893 Z0.196898 E0.198396
G1 X53.0841 Y38.2595 Z0.201796 E0.252519
G1 X54.3785 Y39.2052 Z0.206694 E0.163866
G1 X56.9464 Y37.6908 Z0.211592 E0.307179
G1 X57.7766 Y39.6036 Z0.21649 E0.216548
G1 X59.7277 Y39.9814 Z0.221388 E0.208012
G1 X58.9356 Y42.8962 Z0.226286 E0.31861
G1 X60.2429 Y43.8149 Z0.231184 E0.169848
G1 X59.1743 Y45.9602 Z0.236082 E0.256718
G1 X61.0059 Y46.7594 Z0.24098 E0.215682
G1 X60.0018 Y48.4074 Z0.245878 E0.209852
G1 X62.278 Y49.6382 Z0.250776 E0.28349
G1 X61.7811 Y51.17 Z0.255673 E0.177734
G1 X63.8733 Y53.2107 Z0.260571 E0.324949
G1 X62.1063 Y54.4999 Z0.265469 E0.244973
G1 X62.1665 Y56.4009 Z0.270367 E0.214573
G1 X59.136 Y56.4229 Z0.275265 E0.344365
G1 X58.7059 Y57.9686 Z0.280163 E0.183607
G1 X56.4287 Y57.6147 Z0.285061 E0.265615
G1 X56.2036 Y59.6212 Z0.289959 E0.234355
G1 X54.3767 Y59.195 Z0.294857 E0.219271
G1 X53.8654 Y61.83 Z0.299755 E0.315922
G1 X52.2396 Y61.8126 Z0.304653 E0.192698
G1 X50.843 Y64.2905 Z0.309551 E0.339411
G1 X49.11 Y62.7813 Z0.314449 E0.276096
G1 X47.3422 Y63.2499 Z0.319347 E0.221218
G1 X46.4953 Y60.353 Z0.324245 E0.367531
G1 X44.8765 Y60.4762 Z0.329143 E0.19902
G1 X44.5362 Y58.2798 Z0.334041 E0.274276
G1 X42.5333 Y58.6564 Z0.338939 E0.25315
G1 X42.357 Y56.8482 Z0.343837 E0.227151
G1 X39.5983 Y57.1492 Z0.348735 E0.349232
G1 X39.1477 Y55.5635 Z0.353633 E0.208807
G1 X36.4903 Y54.8592 Z0.358531 E0.350449
G1 X37.6215 Y52.7269 Z0.363429 E0.309663
G1 X36.7835 Y51.1712 Z0.368327 E0.228133
G1 X39.3022 Y49.5712 Z0.373224 E0.387669
G1 X38.6188 Y48.0639 Z0.378122 E0.216368
G1 X40.5487 Y47.1079 Z0.38302 E0.28331
G1 X39.5896 Y45.2835 Z0.387918 E0.272821
G1 X41.1853 Y44.549 Z0.392816 E0.233939
G1 X40.0596 Y41.924 Z0.397714 E0.382706
G1 X41.491 Y41.0486 Z0.402612 E0.226179
G1 X41.5192 Y38.408 Z0.40751 E0.358139
G1 X43.9686 Y39.0425 Z0.412408 E0.345206
G1 X45.2355 Y37.8866 Z0.417306 E0.235387
G1 X47.4399 Y39.8165 Z0.422204 E0.404499
G1 X48.6539 Y38.6302 Z0.427102 E0.235729
G1 F500 X50.1044 Y40.1482 Z0.432 E0.209508
G1 X51.586 Y38.6673 Z0.436898 E0.209017
G1 X52.7721 Y39.8849 Z0.441796 E0.16961
G1 X55.013 Y38.0073 Z0.446694 E0.291711
G1 X56.25 Y39.1941 Z0.451592 E0.171046
G1 X58.7059 Y38.6148 Z0.45649 E0.251774
G1 X58.6709 Y41.2572 Z0.461388 E0.263681
G1 X60.0753 Y42.1629 Z0.466286 E0.166755
G1 X58.8859 Y44.762 Z0.471184 E0.28521
G1 X60.4571 Y45.527 Z0.476082 E0.174372
G1 X59.4513 Y47.3257 Z0.48098 E0.205629
G1 X61.3527 Y48.3154 Z0.485878 E0.213895
G1 X60.6307 Y49.7994 Z0.490776 E0.164672
G1 X63.1093 Y51.4423 Z0.495673 E0.296708
G1 X62.2343 Y52.9683 Z0.500571 E0.175523
G1 X63.3176 Y55.1114 Z0.505469 E0.239603
G1 X60.6454 Y55.7455 Z0.510367 E0.27404
G1 X60.1629 Y57.3071 Z0.515265 E0.163081
G1 X57.4152 Y56.933 Z0.520163 E0.276693
G1 X57.2071 Y58.7226 Z0.525061 E0.179768
G1 X55.2215 Y58.2897 Z0.529959 E0.202776
G1 X54.846 Y60.4653 Z0.534857 E0.220291
G1 X53.2438 Y60.2959 Z0.539755 E0.160761
G1 X52.3515 Y63.164 Z0.544653 E0.299712
G1 X50.6118 Y62.6499 Z0.549551 E0.181015
G1 X48.8666 Y64.1161 Z0.554449 E0.22744
G1 X47.5437 Y61.6061 Z0.559347 E0.283114
G1 X45.9396 Y61.5887 Z0.564245 E0.160062
G1 X45.5067 Y58.9463 Z0.569143 E0.267175
G1 X43.6937 Y59.3397 Z0.574041 E0.185112
G1 X43.5333 Y57.3383 Z0.578939 E0.200341
G1 X41.2705 Y57.6565 Z0.583837 E0.228011
G1 X40.8933 Y56.1181 Z0.588735 E0.158053
G1 X37.8821 Y56.051 Z0.593633 E0.300534
G1 X37.9986 Y54.1736 Z0.598531 E0.187686
G1 X36.2725 Y52.8719 Z0.603429 E0.215717
G1 X38.4174 Y50.9028 Z0.608327 E0.290533
G1 X37.9597 Y49.3895 Z0.613224 E0.15775
G1 X40.2642 Y48.2374 Z0.618122 E0.257079
G1 X39.2938 Y46.5995 Z0.62302 E0.189964
G1 X41.1364 Y45.8705 Z0.627918 E0.197718
G1 X40.1035 Y43.734 Z0.632816 E0.236785
G1 X41.4157 Y42.8734 Z0.637714 E0.156586
G1 X40.667 Y39.9711 Z0.642612 E0.299077
G1 X42.603 Y39.6612 Z0.64751 E0.195632
G1 X43.4469 Y37.7902 Z0.652408 E0.204798
G1 X45.952 Y39.3791 Z0.657306 E0.296005
G1 X47.2329 Y38.4778 Z0.662204 E0.156276
G1 X48.9511 Y40.2576 Z0.667102 E0.246844
G1 X50.2374 Y38.8008 Z0.672 E0.193918
G1 X51.4599 Y40.3169 Z0.676898 E0.194332
G1 X53.2496 Y38.6172 Z0.681796 E0.246272
G1 X54.4872 Y39.5772 Z0.686694 E0.156278
G1 X57.0522 Y38.1 Z0.691592 E0.295343
G1 X57.8096 Y40.0081 Z0.69649 E0.204846
G1 X59.7234 Y40.4015 Z0.701388 E0.194952
G1 X58.8444 Y43.2696 Z0.706286 E0.299324
G1 X60.1106 Y44.1836 Z0.711184 E0.155819
G1 X58.9796 Y46.271 Z0.716082 E0.236896
G1 X60.7814 Y47.0723 Z0.72098 E0.196762
G1 X59.7349 Y48.6608 Z0.725878 E0.189808
G1 X61.9817 Y49.901 Z0.730776 E0.256074
G1 X61.4547 Y51.3833 Z0.735673 E0.156977
G1 X63.5102 Y53.4299 Z0.740571 E0.28943
G1 X61.7282 Y54.6446 Z0.745469 E0.215187
G1 X61.7646 Y56.5115 Z0.750367 E0.186323
G1 X58.7552 Y56.4367 Z0.755265 E0.300381
G1 X58.3173 Y57.9433 Z0.760163 E0.156548
G1 X56.0766 Y57.5151 Z0.765061 E0.227631
G1 X55.8405 Y59.4941 Z0.769959 E0.198859
G1 X54.0572 Y59.0111 Z0.774857 E0.184346
G1 X53.5264 Y61.6211 Z0.779755 E0.265758
G1 X51.9389 Y61.5605 Z0.784653 E0.158516
G1 X50.5286 Y64.0043 Z0.789551 E0.281535
G1 X48.8666 Y62.4598 Z0.794449 E0.226392
G1 X47.1274 Y62.8967 Z0.799347 E0.178931
G1 X46.3792 Y59.9933 Z0.804245 E0.299167
G1 X44.7936 Y60.0977 Z0.809143 E0.15856
G1 X44.533 Y57.9145 Z0.814041 E0.219391
G1 X42.5529 Y58.2725 Z0.818939 E0.200779
G1 X42.442 Y56.4886 Z0.823837 E0.17834
G1 X39.7007 Y56.762 Z0.828735 E0.27488
G1 X39.3028 Y55.2006 Z0.833633 E0.160773
G1 X36.6756 Y54.476 Z0.838531 E0.271942
G1 X37.8616 Y52.4054 Z0.843429 E0.238093
G1 X37.0618 Y50.8706 Z0.848327 E0.172691
G1 X39.614 Y49.363 Z0.853224 E0.29577
G1 X38.9579 Y47.8798 Z0.858122 E0.161829
G1 X40.8979 Y47.0024 Z0.86302 E0.212453
G1 X39.9633 Y45.1938 Z0.867918 E0.203129
G1 X41.5553 Y44.527 Z0.872816 E0.172223
G1 X40.4624 Y41.9097 Z0.877714 E0.283008
G1 X41.8851 Y41.0926 Z0.882612 E0.163709
G1 X41.9392 Y38.4773 Z0.88751 E0.261012
G1 X44.3416 Y39.1836 Z0.892408 E0.249853
G1 X45.5975 Y38.0705 Z0.897306 E0.167452
G1 X47.7235 Y40.0577 Z0.902204 E0.29037
G1 X48.9242 Y38.9035 Z0.907102 E0.166184
G1 X50.3036 Y40.4532 Z0.912 E0.20702
G1 X51.7778 Y39.0003 Z0.916898 E0.206527
G1 X52.9003 Y40.2341 Z0.921796 E0.166435
G1 X55.1443 Y38.3911 Z0.926694 E0.289746
G1 X56.3216 Y39.586 Z0.931592 E0.167377
G1 X58.7576 Y39.0367 Z0.93649 E0.249166
G1 X58.6381 Y41.6518 Z0.941388 E0.261205
G1 X59.9981 Y42.5577 Z0.946286 E0.163052
G1 X58.7328 Y45.0986 Z0.951184 E0.283233
G1 X60.2708 Y45.8619 Z0.956082 E0.171323
G1 X59.215 Y47.6022 Z0.96098 E0.203107
G1 X61.0878 Y48.5942 Z0.965878 E0.211463
G1 X60.3321 Y50.0241 Z0.970776 E0.161374
G1 X62.7779 Y51.6806 Z0.975673 E0.29475
G1 X61.8782 Y53.15 Z0.980571 E0.171909
G1 X62.9281 Y55.2789 Z0.985469 E0.236858
G1 X60.2599 Y55.8216 Z0.990367 E0.271685
G1 X59.7656 Y57.3403 Z0.995265 E0.159366
G1 X57.0516 Y56.8789 Z1.00016 E0.274693
G1 X56.8343 Y58.6379 Z1.00506 E0.176845
G1 X54.89 Y58.1411 Z1.00996 E0.200231
G1 X54.5027 Y60.2905 Z1.01486 E0.217928
G1 X52.9407 Y60.0741 Z1.01976 E0.15735
G1 X52.0255 Y62.9143 Z1.02465 E0.297747
G1 X50.3354 Y62.3599 Z1.02955 E0.177479
G1 X48.598 Y63.7903 Z1.03445 E0.224551
G1 X47.3666 Y61.2591 Z1.03935 E0.280866
G1 X45.8002 Y61.2189 Z1.04424 E0.156353
G1 X45.4584 Y58.5837 Z1.04914 E0.265139
G1 X43.6703 Y58.9589 Z1.05404 E0.182303
G1 X43.5824 Y56.9787 Z1.05894 E0.197774
G1 X41.3399 Y57.2768 Z1.06384 E0.225725
G1 X41.0182 Y55.7617 Z1.06873 E0.154544
G1 X38.0278 Y55.6645 Z1.07363 E0.298547
G1 X38.1982 Y53.8258 Z1.07853 E0.184251
G1 X36.5095 Y52.5251 Z1.08343 E0.212682
G1 X38.7004 Y50.6401 Z1.08833 E0.288377
G1 X38.2745 Y49.156 Z1.09322 E0.154063
G1 X40.5976 Y48.0911 Z1.09812 E0.254997
G1 X39.6521 Y46.4701 Z1.10302 E0.18725
G1 X41.495 Y45.8159 Z1.10792 E0.195123
G1 X40.4884 Y43.6914 Z1.11282 E0.234576
G1 X41.7953 Y42.8894 Z1.11771 E0.153
G1 X41.0812 Y39.9993 Z1.12261 E0.297054
G1 X42.993 Y39.7541 Z1.12751 E0.192322
G1 X43.8433 Y37.9211 Z1.13241 E0.201622
G1 X46.2788 Y39.578 Z1.13731 E0.293926
G1 X47.5415 Y38.7146 Z1.1422 E0.15263
G1 X49.1836 Y40.5361 Z1.1471 E0.244707
G1 X50.462 Y39.1077 Z1.152 E0.191279
G1 X51.6139 Y40.6452 Z1.1569 E0.191695
G1 X53.4018 Y38.9749 Z1.1618 E0.244137
G1 X54.5828 Y39.9472 Z1.16669 E0.152637
G1 X57.1447 Y38.5065 Z1.17159 E0.293268
G1 X57.8303 Y40.4079 Z1.17649 E0.201676
G1 X59.7071 Y40.8156 Z1.18139 E0.191644
G1 X58.743 Y43.6349 Z1.18629 E0.297306
G1 X59.969 Y44.5429 Z1.19118 E0.152236
G1 X58.7778 Y46.5711 Z1.19608 E0.234698
G1 X60.5506 Y47.3738 Z1.20098 E0.194177
G1 X59.4637 Y48.9019 Z1.20588 E0.187109
G1 X61.6818 Y50.1511 Z1.21078 E0.254006
G1 X61.1265 Y51.5836 Z1.21567 E0.153302
G1 X63.146 Y53.6357 Z1.22057 E0.287289
G1 X61.3513 Y54.7761 Z1.22547 E0.21217
G1 X61.3654 Y56.609 Z1.23037 E0.1829
G1 X58.3795 Y56.4386 Z1.23527 E0.298411
G1 X57.9352 Y57.9067 Z1.24016 E0.153052
G1 X55.7328 Y57.4057 Z1.24506 E0.225369
G1 X55.4867 Y59.3577 Z1.24996 E0.196315
G1 X53.7484 Y58.8199 Z1.25486 E0.181565
G1 X53.1986 Y61.4053 Z1.25976 E0.263747
G1 X51.6503 Y61.3032 Z1.26465 E0.154826
G1 X50.2267 Y63.7135 Z1.26955 E0.279313
G1 X48.6361 Y62.1359 Z1.27445 E0.223532
G1 X46.9258 Y62.5427 Z1.27935 E0.175415
G1 X46.276 Y59.6356 Z1.28424 E0.297229
G1 X44.7233 Y59.7225 Z1.28914 E0.155172
G1 X44.5415 Y57.5547 Z1.29404 E0.217066
G1 X42.5838 Y57.895 Z1.29894 E0.19827
G1 X42.5369 Y56.1372 Z1.30384 E0.175457
G1 X39.8128 Y56.3836 Z1.30873 E0.272916
G1 X39.4663 Y54.8479 Z1.31363 E0.157086
G1 X36.8687 Y54.1035 Z1.31853 E0.269624
G1 X38.1074 Y52.0958 Z1.32343 E0.235388
G1 X37.3445 Y50.5825 Z1.32833 E0.169104
G1 X39.9274 Y49.1676 Z1.33322 E0.293851
G1 X39.2972 Y47.7087 Z1.33812 E0.158567
G1 X41.2449 Y46.9095 Z1.34302 E0.210072
G1 X40.3338 Y45.1168 Z1.34792 E0.200657
G1 X41.9201 Y44.5168 Z1.35282 E0.169225
G1 X40.8594 Y41.9072 Z1.35771 E0.281079
G1 X42.272 Y41.1474 Z1.36261 E0.160041
G1 X42.351 Y38.5571 Z1.36751 E0.258584
G1 X44.7047 Y39.3333 Z1.37241 E0.247295
G1 X45.9486 Y38.2618 Z1.37731 E0.163817
G1 X47.9951 Y40.3037 Z1.3822 E0.288456
G1 X49.1821 Y39.1805 Z1.3871 E0.163059
G1 X50.4901 Y40.7595 Z1.392 E0.204593
G1 X51.9568 Y39.3337 Z1.3969 E0.204101
G1 X53.0157 Y40.5817 Z1.4018 E0.163314
G1 X55.2627 Y38.7726 Z1.40669 E0.287837
G1 X56.3809 Y39.9737 Z1.41159 E0.163747
G1 X58.7972 Y39.4536 Z1.41649 E0.246613
G1 X58.5945 Y42.0392 Z1.42139 E0.258782
G1 X59.9109 Y42.944 Z1.42629 E0.159388
G1 X58.572 Y45.4251 Z1.43118 E0.28131
G1 X60.0777 Y46.186 Z1.43608 E0.168335
G1 X58.9741 Y47.867 Z1.44098 E0.200649
G1 X60.819 Y48.8607 Z1.44588 E0.209097
G1 X60.0316 Y50.2361 Z1.45078 E0.15813
G1 X62.4451 Y51.906 Z1.45567 E0.292848
G1 X61.5228 Y53.3186 Z1.46057 E0.168337
G1 X62.5403 Y55.4335 Z1.46547 E0.23417
G1 X59.8786 Y55.8854 Z1.47037 E0.269385
G1 X59.3739 Y57.3619 Z1.47527 E0.155694
G1 X56.6958 Y56.8146 Z1.48016 E0.272749
G1 X56.4701 Y58.5437 Z1.48506 E0.173987
G1 X54.5687 Y57.9847 Z1.48996 E0.19775
G1 X54.1702 Y60.1087 Z1.49486 E0.215633
G1 X52.6493 Y59.847 Z1.49976 E0.153991
G1 X51.7115 Y62.6597 Z1.50465 E0.295838
G1 X50.0716 Y62.067 Z1.50955 E0.17399
G1 X48.3424 Y63.4625 Z1.51445 E0.221721
G1 X47.2024 Y60.9129 Z1.51935 E0.278674
G1 X45.6734 Y60.8514 Z1.52424 E0.152688
G1 X45.422 Y58.226 Z1.52914 E0.263162
G1 X43.6584 Y58.5838 Z1.53404 E0.179561
G1 X43.6415 Y56.6268 Z1.53894 E0.195273
G1 X41.4189 Y56.9054 Z1.54384 E0.223505
G1 X41.1514 Y55.415 Z1.54873 E0.151086
G1 X38.1814 Y55.2882 Z1.55363 E0.296618
G1 X38.404 Y53.4892 Z1.55853 E0.180868
G1 X36.7519 Y52.1902 Z1.56343 E0.209707
G1 X38.9859 Y50.39 Z1.56833 E0.286278
G1 X38.5905 Y48.9353 Z1.57322 E0.150422
G1 X40.9297 Y47.9575 Z1.57812 E0.252977
G1 X40.0079 Y46.3533 Z1.58302 E0.184605
G1 X41.8489 Y45.7732 Z1.58792 E0.192595
G1 X40.8678 Y43.6604 Z1.59282 E0.232434
G1 X42.1677 Y42.916 Z1.59771 E0.149465
G1 X41.4878 Y40.0379 Z1.60261 E0.295089
G1 X43.3738 Y39.8561 Z1.60751 E0.189066
G1 X44.2296 Y38.0602 Z1.61241 E0.198504
G1 X46.5943 Y39.7826 Z1.61731 E0.291903
G1 X47.8382 Y38.9558 Z1.6222 E0.149035
G1 X49.4036 Y40.8166 Z1.6271 E0.242634
G1 X50.674 Y39.4155 Z1.632 E0.188711
G1 X51.7553 Y40.9723 Z1.6369 E0.189128
G1 X53.5414 Y39.3306 Z1.6418 E0.242069
G1 X54.6663 Y40.3133 Z1.64669 E0.149047
G1 X57.2251 Y38.9086 Z1.65159 E0.291254
G1 X57.8398 Y40.8013 Z1.65649 E0.198565
G1 X59.6804 Y41.2222 Z1.66139 E0.188395
G1 X58.633 Y43.9906 Z1.66629 E0.295346
G1 X59.8199 Y44.892 Z1.67118 E0.148708
G1 X58.5707 Y46.8597 Z1.67608 E0.232566
G1 X60.3154 Y47.6633 Z1.68098 E0.191665
G1 X59.1905 Y49.1306 Z1.68588 E0.184481
G1 X61.3805 Y50.3885 Z1.69078 E0.252005
G1 X60.7987 Y51.7712 Z1.69567 E0.149679
G1 X62.7829 Y53.8287 Z1.70057 E0.285211
G1 X60.9776 Y54.8952 Z1.70547 E0.209215
G1 X60.9705 Y56.6945 Z1.71037 E0.179536
G1 X58.0108 Y56.4298 Z1.71527 E0.296499
G1 X57.561 Y57.8602 Z1.72016 E0.149615
G1 X55.3988 Y57.2882 Z1.72506 E0.223175
G1 X55.1432 Y59.214 Z1.72996 E0.193845
G1 X53.4509 Y58.6232 Z1.73486 E0.178856
G1 X52.8824 Y61.1847 Z1.73976 E0.261804
G1 X51.3739 Y61.0427 Z1.74465 E0.15119
G1 X49.9374 Y63.42 Z1.74955 E0.277155
G1 X48.4184 Y61.8118 Z1.75445 E0.220736
G1 X46.737 Y62.1897 Z1.75935 E0.171957
G1 X46.1847 Y59.2817 Z1.76424 E0.295351
G1 X44.6645 Y59.3523 Z1.76914 E0.15185
G1 X44.5603 Y57.202 Z1.77404 E0.214813
G1 X42.6245 Y57.5255 Z1.77894 E0.195837
G1 X42.6401 Y55.7953 Z1.78384 E0.172648
G1 X39.9328 Y56.0151 Z1.78873 E0.271019
G1 X39.6362 Y54.506 Z1.79363 E0.153454
G1 X37.0677 Y53.7423 Z1.79853 E0.267372
G1 X38.3568 Y51.7983 Z1.80343 E0.232748
G1 X37.6295 Y50.3068 Z1.80833 E0.165576
G1 X40.2402 Y48.9848 Z1.81322 E0.291992
G1 X39.6347 Y47.5501 Z1.81812 E0.155376
G1 X41.5879 Y46.8285 Z1.82302 E0.207764
G1 X40.6993 Y45.0513 Z1.82792 E0.198262
G1 X42.2781 Y44.5172 Z1.83282 E0.166301
G1 X41.2491 Y41.9149 Z1.83771 E0.279215
G1 X42.6501 Y41.2113 Z1.84261 E0.156431
G1 X42.7535 Y38.6455 Z1.84751 E0.256224
G1 X45.0571 Y39.4896 Z1.85241 E0.244803
G1 X46.2883 Y38.4585 Z1.85731 E0.160241
G1 X48.2544 Y40.5525 Z1.8622 E0.286604
G1 X49.4275 Y39.4591 Z1.8671 E0.160008
G1 X50.6641 Y41.065 Z1.872 E0.202241
G1 X52.1233 Y39.6654 Z1.8769 E0.201753
G1 X53.1191 Y40.9255 Z1.8818 E0.160267
G1 X55.3692 Y39.15 Z1.88669 E0.285995
G1 X56.4291 Y40.3555 Z1.89159 E0.160177
G1 X58.8259 Y39.8639 Z1.89649 E0.244131
G1 X58.5418 Y42.418 Z1.90139 E0.256427
G1 X59.8156 Y43.3208 Z1.90629 E0.155786
G1 X58.4052 Y45.7404 Z1.91118 E0.279452
G1 X59.8797 Y46.4984 Z1.91608 E0.165425
G1 X58.7305 Y48.1194 Z1.92098 E0.198267
G1 X60.5484 Y49.1148 Z1.92588 E0.206809
G1 X59.7314 Y50.4355 Z1.93078 E0.154959
G1 X62.1131 Y52.1189 Z1.93567 E0.291013
G1 X61.17 Y53.475 Z1.94057 E0.164829
G1 X62.1559 Y55.5758 Z1.94547 E0.231556
G1 X59.5032 Y55.9382 Z1.95037 E0.267152
G1 X58.9892 Y57.3731 Z1.95527 E0.152084
G1 X56.349 Y56.7418 Z1.96016 E0.270872
G1 X56.1157 Y58.4417 Z1.96506 E0.17121
G1 X54.2584 Y57.8226 Z1.96996 E0.195348
G1 X53.8491 Y59.9219 Z1.97486 E0.213416
G1 X52.3699 Y59.6167 Z1.97976 E0.150704
G1 X51.4097 Y62.4023 Z1.98465 E0.293997
G1 X49.8203 Y61.7732 Z1.98955 E0.170568
G1 X48.0993 Y63.1348 Z1.99445 E0.218966
G1 X47.0503 Y60.5694 Z1.99935 E0.276548
G1 X45.5584 Y60.4879 Z2.00424 E0.149088
