
;FLAVOR:Marlin
;TIME:0
;Filament used: 0m
;Layer height: 0
;MINX:0
;MINY:0
;MINZ:0
;MAXX:220
;MAXY:220
;MAXZ:250

; Stonehippo FlowControl Designs © 2022 by George White is licensed under CC BY-SA 4.0.
; To view a copy of this license, visit http://creativecommons.org/licenses/by-sa/4.0/

;Time to print!!!!!
;GCode created with FullControl - tell us what you're printing!
;info@fullcontrol.xyz or tag FullControlXYZ on Twitter/Instagram 

G28 ; home axes
M140 S70 ; set bed temp and continue
M105
M104 S200 ; set hotend temp and continue
M190 S70 ; set bed temp and wait
M105
M109 S200  ; set hotend temp and wait
G90 ; absolute coordinates
G21 ; set units to millimeters
M83 ; relative extrusion
M106 S255 ; set fan speed
M220 S80 ; set speed factor override percentage
M221 S100 ; set extrude factor override percentage
G0 F8000 X0.0 Y0.0 Z10.0
G1 F250 E20.7876
G0 F8000 X10.0 Y10.0 Z0.3
;-----
; END OF STARTING PROCEDURE
;-----

;-----
; START OF PRIMER PROCEDURE
;-----
G0 F8000 Y14.0 Z0.192
G1 F500 X110.0 E9.97804
G1 Y12.0 E0.199561
G1 X10.0 E9.97804
G1 Y14.0 E0.199561
G1 Y16.0 E0.199561
G1 X50.0 E3.99122
G1 Y38.5 E2.24506
;-----
; END OF PRIMER PROCEDURE
;-----

G1 F250 X51.2886 Y39.9887 Z0.196898 E0.198069
G1 X53.074 Y38.2569 Z0.201796 E0.252243
G1 X54.3645 Y39.1995 Z0.206694 E0.163367
G1 X56.9251 Y37.6788 Z0.211592 E0.306864
G1 X57.7541 Y39.5868 Z0.21649 E0.216042
G1 X59.7016 Y39.9562 Z0.221388 E0.207483
G1 X58.914 Y42.8692 Z0.226286 E0.318302
G1 X60.2215 Y43.7795 Z0.231184 E0.169345
G1 X59.1585 Y45.9245 Z0.236082 E0.256421
G1 X60.9918 Y46.7118 Z0.24098 E0.215339
G1 X59.9941 Y48.3598 Z0.245878 E0.209489
G1 X62.2759 Y49.5744 Z0.250776 E0.283198
G1 X61.7875 Y51.1037 Z0.255673 E0.177182
G1 X63.8925 Y53.1266 Z0.260571 E0.324594
G1 X62.1352 Y54.4212 Z0.265469 E0.244451
G1 X62.2105 Y56.3166 Z0.270367 E0.21399
G1 X59.183 Y56.3556 Z0.275265 E0.344046
G1 X58.7677 Y57.9005 Z0.280163 E0.183086
G1 X56.4911 Y57.5616 Z0.285061 E0.265289
G1 X56.2866 Y59.5672 Z0.289959 E0.233992
G1 X54.4601 Y59.1548 Z0.294857 E0.218869
G1 X53.9778 Y61.7926 Z0.299755 E0.315614
G1 X52.357 Y61.7898 Z0.304653 E0.192094
G1 X50.9913 Y64.281 Z0.309551 E0.339011
G1 X49.2483 Y62.7902 Z0.314449 E0.275565
G1 X47.4914 Y63.2789 Z0.319347 E0.220584
G1 X46.6165 Y60.3932 Z0.324245 E0.367201
G1 X45.0038 Y60.5375 Z0.329143 E0.198487
G1 X44.6405 Y58.3477 Z0.334041 E0.27392
G1 X42.6463 Y58.7525 Z0.338939 E0.252767
G1 X42.4496 Y56.9501 Z0.343837 E0.226704
G1 X39.6983 Y57.2925 Z0.348735 E0.348907
G1 X39.2282 Y55.7178 Z0.353633 E0.208152
G1 X36.5632 Y55.0574 Z0.358531 E0.349999
G1 X37.6642 Y52.914 Z0.363429 E0.309128
G1 X36.8033 Y51.3769 Z0.368327 E0.227452
G1 X39.2967 Y49.7425 Z0.373224 E0.387327
G1 X38.5885 Y48.2512 Z0.378122 E0.215827
G1 X40.5013 Y47.2678 Z0.38302 E0.282924
G1 X39.5096 Y45.4643 Z0.387918 E0.272419
G1 X41.09 Y44.7062 Z0.392816 E0.233442
G1 X39.9145 Y42.1059 Z0.397714 E0.382361
G1 X41.3259 Y41.2084 Z0.402612 E0.225475
G1 X41.3001 Y38.5715 Z0.40751 E0.357634
G1 X43.7564 Y39.162 Z0.412408 E0.344669
G1 X44.9955 Y37.9838 Z0.417306 E0.234665
G1 X47.2334 Y39.8707 Z0.422204 E0.404143
G1 X48.4181 Y38.6606 Z0.427102 E0.235184
G1 F500 X49.8956 Y40.1482 Z0.432 E0.209211
G1 X51.3405 Y38.6357 Z0.436898 E0.20872
G1 X52.5483 Y39.8262 Z0.441796 E0.16922
G1 X54.742 Y37.8976 Z0.446694 E0.291453
G1 X56.0006 Y39.0537 Z0.451592 E0.170523
G1 X58.4376 Y38.4146 Z0.45649 E0.251382
G1 X58.4604 Y41.0534 Z0.461388 E0.263312
G1 X59.8826 Y41.9212 Z0.466286 E0.166235
G1 X58.754 Y44.5446 Z0.471184 E0.284956
G1 X60.3416 Y45.2661 Z0.476082 E0.174001
G1 X59.3799 Y47.0853 Z0.48098 E0.205329
G1 X61.3052 Y48.0214 Z0.485878 E0.213605
G1 X60.6217 Y49.519 Z0.490776 E0.164263
G1 X63.1432 Y51.0902 Z0.495673 E0.296447
G1 X62.3106 Y52.6339 Z0.500571 E0.175001
G1 X63.454 Y54.7408 Z0.505469 E0.23919
G1 X60.8027 Y55.4439 Z0.510367 E0.273693
G1 X60.3673 Y57.014 Z0.515265 E0.162569
G1 X57.613 Y56.7152 Z0.520163 E0.27644
G1 X57.4605 Y58.5068 Z0.525061 E0.179415
G1 X55.4666 Y58.1302 Z0.529959 E0.202475
G1 X55.1606 Y60.3137 Z0.534857 E0.220008
G1 X53.5584 Y60.1914 Z0.539755 E0.160334
G1 X52.7603 Y63.0844 Z0.544653 E0.299447
G1 X51.0109 Y62.6242 Z0.549551 E0.180499
G1 X49.319 Y64.1452 Z0.554449 E0.227005
G1 X47.9214 Y61.6796 Z0.559347 E0.282787
G1 X46.3227 Y61.7159 Z0.564245 E0.15956
G1 X45.8071 Y59.0909 Z0.569143 E0.266921
G1 X44.0123 Y59.5472 Z0.574041 E0.184777
G1 X43.7878 Y57.555 Z0.578939 E0.200038
G1 X41.5406 Y57.954 Z0.583837 E0.227736
G1 X41.1132 Y56.4334 Z0.588735 E0.157609
G1 X38.1043 Y56.4769 Z0.593633 E0.300262
G1 X38.1561 Y54.6017 Z0.598531 E0.18718
G1 X36.3859 Y53.3687 Z0.603429 E0.215261
G1 X38.4585 Y51.328 Z0.608327 E0.290224
G1 X37.9453 Y49.8378 Z0.613224 E0.15726
G1 X40.2048 Y48.605 Z0.618122 E0.256824
G1 X39.1722 Y47.0094 Z0.62302 E0.189641
G1 X40.984 Y46.2147 Z0.627918 E0.197411
G1 X39.8671 Y44.124 Z0.632816 E0.236519
G1 X41.1419 Y43.2168 Z0.637714 E0.156126
G1 X40.2754 Y40.3504 Z0.642612 E0.298796
G1 X42.1932 Y39.967 Z0.64751 E0.195141
G1 X42.956 Y38.0667 Z0.652408 E0.204324
G1 X45.5191 Y39.5544 Z0.657306 E0.295712
G1 X46.7569 Y38.6026 Z0.662204 E0.1558
G1 X48.5434 Y40.3102 Z0.667102 E0.246585
G1 X49.7626 Y38.8008 Z0.672 E0.193606
G1 X51.044 Y40.2633 Z0.676898 E0.194021
G1 X52.7543 Y38.4874 Z0.681796 E0.246013
G1 X54.0276 Y39.3911 Z0.686694 E0.155804
G1 X56.5204 Y37.8005 Z0.691592 E0.29505
G1 X57.3568 Y39.6702 Z0.69649 E0.204373
G1 X59.2819 Y39.9739 Z0.701388 E0.194462
G1 X58.5297 Y42.875 Z0.706286 E0.299044
G1 X59.8334 Y43.7262 Z0.711184 E0.15536
G1 X58.7975 Y45.8596 Z0.716082 E0.236632
G1 X60.6329 Y46.572 Z0.72098 E0.196457
G1 X59.6609 Y48.2034 Z0.725878 E0.189489
G1 X61.9634 Y49.3312 Z0.730776 E0.25582
G1 X61.5079 Y50.8319 Z0.735673 E0.156491
G1 X63.6604 Y52.7716 Z0.740571 E0.289123
G1 X61.9411 Y54.066 Z0.745469 E0.214737
G1 X62.0713 Y55.9237 Z0.750367 E0.185821
G1 X59.0644 Y55.9934 Z0.755265 E0.300113
G1 X58.7053 Y57.5161 Z0.760163 E0.156108
G1 X56.449 Y57.1981 Z0.765061 E0.227362
G1 X56.3173 Y59.1837 Z0.769959 E0.198561
G1 X54.5155 Y58.7904 Z0.774857 E0.184017
G1 X54.1246 Y61.4225 Z0.779755 E0.265509
G1 X52.5411 Y61.4432 Z0.784653 E0.15802
G1 X51.2666 Y63.9569 Z0.789551 E0.281213
G1 X49.5308 Y62.5024 Z0.794449 E0.225965
G1 X47.823 Y63.0322 Z0.799347 E0.178422
G1 X46.9246 Y60.1744 Z0.804245 E0.298909
G1 X45.3514 Y60.3664 Z0.809143 E0.15814
G1 X44.9758 Y58.2028 Z0.814041 E0.219117
G1 X43.0221 Y58.6719 Z0.818939 E0.200485
G1 X42.8156 Y56.9 Z0.823837 E0.177997
G1 X40.0971 Y57.3302 Z0.828735 E0.274634
G1 X39.6146 Y55.7981 Z0.833633 E0.160271
G1 X36.9527 Y55.2291 Z0.838531 E0.271603
G1 X38.02 Y53.0994 Z0.843429 E0.237691
G1 X37.134 Y51.6187 Z0.848327 E0.172179
G1 X39.5945 Y49.9703 Z0.853224 E0.295519
G1 X38.8523 Y48.5327 Z0.858122 E0.16143
G1 X40.7363 Y47.5467 Z0.86302 E0.212174
G1 X39.6944 Y45.8012 Z0.867918 E0.20284
G1 X41.2416 Y45.0444 Z0.872816 E0.171864
G1 X39.9902 Y42.5018 Z0.877714 E0.282763
G1 X41.3573 Y41.6038 Z0.882612 E0.163202
G1 X41.2471 Y38.9939 Z0.88751 E0.260654
G1 X43.6837 Y39.5541 Z0.892408 E0.249475
G1 X44.8634 Y38.3677 Z0.897306 E0.166941
G1 X47.1047 Y40.2199 Z0.902204 E0.290124
G1 X48.226 Y38.9935 Z0.907102 E0.165807
G1 X49.6964 Y40.4532 Z0.912 E0.206736
G1 X51.0704 Y38.9091 Z0.916898 E0.206243
G1 X52.2652 Y40.0676 Z0.921796 E0.166059
G1 X54.3807 Y38.082 Z0.926694 E0.2895
G1 X55.6284 Y39.1955 Z0.931592 E0.166867
G1 X58.0184 Y38.485 Z0.93649 E0.248787
G1 X58.0671 Y41.0988 Z0.941388 E0.260849
G1 X59.4805 Y41.9086 Z0.946286 E0.162545
G1 X58.3848 Y44.5246 Z0.951184 E0.28299
G1 X59.9684 Y45.1788 Z0.956082 E0.170966
G1 X59.0311 Y46.9824 Z0.96098 E0.202821
G1 X60.9659 Y47.8403 Z0.965878 E0.211186
G1 X60.3093 Y49.314 Z0.970776 E0.160979
G1 X62.8635 Y50.7929 Z0.975673 E0.294501
G1 X62.0686 Y52.3157 Z0.980571 E0.1714
G1 X63.2661 Y54.3608 Z0.985469 E0.236458
G1 X60.6446 Y55.0843 Z0.990367 E0.271351
G1 X60.2614 Y56.6297 Z0.995265 E0.158867
G1 X57.5242 Y56.3585 Z1.00016 E0.274451
G1 X57.4364 Y58.1253 Z1.00506 E0.176507
G1 X55.4649 Y57.7669 Z1.00996 E0.199943
G1 X55.238 Y59.9364 Z1.01486 E0.217659
G1 X53.6687 Y59.8324 Z1.01976 E0.156936
G1 X52.9688 Y62.7305 Z1.02465 E0.297493
G1 X51.2479 Y62.3013 Z1.02955 E0.176977
G1 X49.627 Y63.8564 Z1.03445 E0.224131
G1 X48.2158 Y61.4245 Z1.03935 E0.280551
G1 X46.6557 Y61.5029 Z1.04424 E0.155864
G1 X46.1206 Y58.9026 Z1.04914 E0.264897
G1 X44.3701 Y59.4144 Z1.05404 E0.181981
G1 X44.135 Y57.4492 Z1.05894 E0.197484
G1 X41.9253 Y57.9214 Z1.06384 E0.225463
G1 X41.4908 Y56.4392 Z1.06873 E0.154113
G1 X38.5047 Y56.5786 Z1.07363 E0.298286
G1 X38.5336 Y54.7372 Z1.07853 E0.183759
G1 X36.7499 Y53.5783 Z1.08343 E0.212241
G1 X38.7864 Y51.5317 Z1.08833 E0.28808
G1 X38.2445 Y50.091 Z1.09322 E0.153586
G1 X40.4751 Y48.8489 Z1.09812 E0.254754
G1 X39.4019 Y47.3132 Z1.10302 E0.186941
G1 X41.1847 Y46.5169 Z1.10792 E0.19483
G1 X40.0073 Y44.4849 Z1.11282 E0.234322
G1 X41.242 Y43.5832 Z1.11771 E0.152553
G1 X40.2903 Y40.7652 Z1.12261 E0.296784
G1 X42.1713 Y40.3674 Z1.12751 E0.191845
G1 X42.8624 Y38.4735 Z1.13241 E0.201161
G1 X45.4227 Y39.9246 Z1.13731 E0.293644
G1 X46.6042 Y38.9604 Z1.1422 E0.152168
G1 X48.3891 Y40.6385 Z1.1471 E0.24446
G1 X49.538 Y39.1077 Z1.152 E0.19098
G1 X50.8118 Y40.5418 Z1.1569 E0.191398
G1 X52.4462 Y38.7243 Z1.1618 E0.24389
G1 X53.7015 Y39.5904 Z1.16669 E0.152177
G1 X56.1248 Y37.9322 Z1.17159 E0.292987
G1 X56.9677 Y39.7642 Z1.17649 E0.201218
G1 X58.8686 Y40.0035 Z1.18139 E0.191167
G1 X58.1511 Y42.8926 Z1.18629 E0.297039
G1 X59.4493 Y43.6856 Z1.19118 E0.151791
G1 X58.4396 Y45.8072 Z1.19608 E0.234446
G1 X60.275 Y46.4453 Z1.20098 E0.193886
G1 X59.3276 Y48.06 Z1.20588 E0.186804
G1 X61.6482 Y49.1008 Z1.21078 E0.253764
G1 X61.224 Y50.5725 Z1.21567 E0.15283
G1 X63.4217 Y52.4282 Z1.22057 E0.286995
G1 X61.7394 Y53.7215 Z1.22547 E0.211734
G1 X61.9228 Y55.5404 Z1.23037 E0.182412
G1 X58.9364 Y55.6403 Z1.23527 E0.298154
G1 X58.6321 Y57.1393 Z1.24016 E0.152625
G1 X56.3958 Y56.8413 Z1.24506 E0.225112
G1 X56.3359 Y58.805 Z1.24996 E0.19603
G1 X54.5586 Y58.4297 Z1.25486 E0.18125
G1 X54.2583 Y61.0535 Z1.25976 E0.26351
G1 X52.7121 Y61.0964 Z1.26465 E0.154344
G1 X51.5288 Y63.6299 Z1.26955 E0.279004
G1 X49.8008 Y62.2107 Z1.27445 E0.223119
G1 X48.1426 Y62.7796 Z1.27935 E0.174919
G1 X47.2213 Y59.9495 Z1.28424 E0.296982
G1 X45.6886 Y60.1874 Z1.28914 E0.154766
G1 X45.3014 Y58.0493 Z1.29404 E0.216805
G1 X43.3898 Y58.5812 Z1.29894 E0.197989
G1 X43.1745 Y56.8393 Z1.30384 E0.175129
G1 X40.4909 Y57.3557 Z1.30873 E0.272682
G1 X39.9974 Y55.8659 Z1.31363 E0.156597
G1 X37.3413 Y55.3875 Z1.31853 E0.269298
G1 X38.3758 Y53.2717 Z1.32343 E0.234999
G1 X37.4666 Y51.8475 Z1.32833 E0.168605
G1 X39.8947 Y50.1853 Z1.33322 E0.293611
G1 X39.1204 Y48.802 Z1.33812 E0.158182
G1 X40.9765 Y47.8139 Z1.34302 E0.209806
G1 X39.8864 Y46.1273 Z1.34792 E0.200381
G1 X41.4013 Y45.3725 Z1.35282 E0.168881
G1 X40.0761 Y42.8894 Z1.35771 E0.280845
G1 X41.3996 Y41.9922 Z1.36261 E0.159547
G1 X41.2064 Y39.4113 Z1.36751 E0.258239
G1 X43.6235 Y39.9422 Z1.37241 E0.246929
G1 X44.7442 Y38.7494 Z1.37731 E0.163319
G1 X46.9888 Y40.5676 Z1.3822 E0.288221
G1 X48.0468 Y39.3269 Z1.3871 E0.162696
G1 X49.5099 Y40.7595 Z1.392 E0.204322
G1 X50.8128 Y39.1862 Z1.3969 E0.20383
G1 X51.9941 Y40.3138 Z1.4018 E0.162952
G1 X54.0303 Y38.2737 Z1.40669 E0.287602
G1 X55.2661 Y39.3458 Z1.41159 E0.16325
G1 X57.6075 Y38.5657 Z1.41649 E0.246248
G1 X57.6812 Y41.1547 Z1.42139 E0.25844
G1 X59.0844 Y41.9077 Z1.42629 E0.158895
G1 X58.021 Y44.5162 Z1.43118 E0.281079
G1 X59.5987 Y45.1039 Z1.43608 E0.167992
G1 X58.6847 Y46.892 Z1.44098 E0.200376
G1 X60.6268 Y47.6721 Z1.44588 E0.208832
G1 X59.9959 Y49.1217 Z1.45078 E0.157749
G1 X62.58 Y50.5081 Z1.45567 E0.29261
G1 X61.8216 Y52.0096 Z1.46057 E0.167843
G1 X63.0709 Y53.9917 Z1.46547 E0.233785
G1 X60.4788 Y54.735 Z1.47037 E0.269064
G1 X60.1463 Y56.2546 Z1.47527 E0.155208
G1 X57.4261 Y56.0105 Z1.48016 E0.272519
G1 X57.4015 Y57.7507 Z1.48506 E0.173663
G1 X55.452 Y57.4098 Z1.48996 E0.197475
G1 X55.3032 Y59.5631 Z1.49486 E0.215376
G1 X53.7664 Y59.4761 Z1.49976 E0.153591
G1 X53.1644 Y62.3767 Z1.50465 E0.295595
G1 X51.4721 Y61.977 Z1.50955 E0.173501
G1 X49.9225 Y63.5639 Z1.51445 E0.221314
G1 X48.4979 Y61.1652 Z1.51935 E0.278371
G1 X46.9771 Y61.2842 Z1.52424 E0.152212
G1 X46.423 Y58.708 Z1.52914 E0.262932
G1 X44.7179 Y59.2734 Z1.53404 E0.179252
G1 X44.4729 Y57.3346 Z1.53894 E0.194996
G1 X42.3025 Y57.8783 Z1.54384 E0.223256
G1 X41.8622 Y56.434 Z1.54873 E0.150669
G1 X38.9012 Y56.6678 Z1.55363 E0.296368
G1 X38.9085 Y54.86 Z1.55853 E0.18039
G1 X37.1136 Y53.7748 Z1.56343 E0.209279
G1 X39.1145 Y51.7226 Z1.56833 E0.285993
G1 X38.5457 Y50.3315 Z1.57322 E0.149959
G1 X40.7481 Y49.0804 Z1.57812 E0.252745
G1 X39.6364 Y47.6052 Z1.58302 E0.18431
G1 X41.3909 Y46.8076 Z1.58792 E0.192316
G1 X40.1553 Y44.8357 Z1.59282 E0.232192
G1 X41.3508 Y43.9404 Z1.59771 E0.149031
G1 X40.3158 Y41.1728 Z1.60261 E0.294831
G1 X42.1607 Y40.7615 Z1.60751 E0.188603
G1 X42.7811 Y38.876 Z1.61241 E0.198058
G1 X45.3384 Y40.291 Z1.61731 E0.291634
G1 X46.4641 Y39.3161 Z1.6222 E0.148586
G1 X48.2475 Y40.9656 Z1.6271 E0.242399
G1 X49.326 Y39.4155 Z1.632 E0.188426
G1 X50.5921 Y40.8223 Z1.6369 E0.188844
G1 X52.15 Y38.9657 Z1.6418 E0.241833
G1 X53.3868 Y39.7953 Z1.64669 E0.1486
G1 X55.7393 Y38.0718 Z1.65159 E0.290985
G1 X56.5879 Y39.8669 Z1.65649 E0.198121
G1 X58.463 Y40.0432 Z1.66139 E0.187932
G1 X57.7797 Y42.9206 Z1.66629 E0.29509
G1 X59.0709 Y43.6563 Z1.67118 E0.148277
G1 X58.0868 Y45.7665 Z1.67608 E0.232326
G1 X59.9199 Y46.3309 Z1.68098 E0.191387
G1 X58.9962 Y47.9291 Z1.68588 E0.18419
G1 X61.3322 Y48.8831 Z1.69078 E0.251775
G1 X60.9381 Y50.3257 Z1.69567 E0.14922
G1 X63.1782 Y52.0967 Z1.70057 E0.284929
G1 X61.532 Y53.3886 Z1.70547 E0.208792
G1 X61.767 Y55.1677 Z1.71037 E0.179061
G1 X58.8008 Y55.2972 Z1.71527 E0.296253
G1 X58.5499 Y56.7713 Z1.72016 E0.149202
G1 X56.3331 Y56.4928 Z1.72506 E0.222931
G1 X56.3435 Y58.4327 Z1.72996 E0.193573
G1 X54.5903 Y58.0745 Z1.73486 E0.178554
G1 X54.3797 Y60.6876 Z1.73976 E0.261578
G1 X52.8705 Y60.7512 Z1.74465 E0.150721
G1 X51.7782 Y63.3019 Z1.74955 E0.276858
G1 X50.0582 Y61.9171 Z1.75445 E0.220337
G1 X48.4502 Y62.5233 Z1.75935 E0.171474
G1 X47.5061 Y59.7204 Z1.76424 E0.295115
G1 X46.0147 Y60.0025 Z1.76914 E0.151457
G1 X45.6163 Y57.8893 Z1.77404 E0.214563
G1 X43.7481 Y58.482 Z1.77894 E0.195569
G1 X43.5248 Y56.7694 Z1.78384 E0.172333
G1 X40.8782 Y57.3703 Z1.78873 E0.270795
G1 X40.375 Y55.9221 Z1.79363 E0.152978
G1 X37.7269 Y55.5335 Z1.79853 E0.267059
G1 X38.7296 Y53.4316 Z1.80343 E0.232372
G1 X37.799 Y52.0636 Z1.80833 E0.16509
G1 X40.1952 Y50.3878 Z1.81322 E0.291763
G1 X39.3908 Y49.0589 Z1.81812 E0.155005
G1 X41.2197 Y48.0689 Z1.82302 E0.20751
G1 X40.0837 Y46.4419 Z1.82792 E0.197999
G1 X41.5672 Y45.6897 Z1.83282 E0.16597
G1 X40.1704 Y43.2676 Z1.83771 E0.278993
G1 X41.4513 Y42.3721 Z1.84261 E0.15595
G1 X41.1766 Y39.8224 Z1.84751 E0.255892
G1 X43.5744 Y40.3246 Z1.85241 E0.24445
G1 X44.637 Y39.127 Z1.85731 E0.159756
G1 X46.8849 Y40.9116 Z1.8622 E0.286381
G1 X47.88 Y39.6586 Z1.8671 E0.159659
G1 X49.3359 Y41.065 Z1.872 E0.201983
G1 X50.5676 Y39.4648 Z1.8769 E0.201494
G1 X51.7352 Y40.5626 Z1.8818 E0.159918
G1 X53.6912 Y38.4706 Z1.88669 E0.285771
G1 X54.9146 Y39.5026 Z1.89159 E0.159694
G1 X57.206 Y38.6549 Z1.89649 E0.24378
G1 X57.3043 Y41.2196 Z1.90139 E0.256097
G1 X58.6959 Y41.9168 Z1.90629 E0.155306
G1 X57.6642 Y44.5181 Z1.91118 E0.279232
G1 X59.2343 Y45.0404 Z1.91608 E0.165096
G1 X58.3428 Y46.8133 Z1.92098 E0.198007
G1 X60.29 Y47.5162 Z1.92588 E0.206557
G1 X59.6835 Y48.9419 Z1.93078 E0.154592
G1 X62.2948 Y50.2357 Z1.93567 E0.290786
G1 X61.5715 Y51.7156 Z1.94057 E0.164348
G1 X62.8705 Y53.6341 Z1.94547 E0.231183
G1 X60.3073 Y54.3969 Z1.95037 E0.266843
G1 X60.024 Y55.8897 Z1.95527 E0.151611
G1 X57.3203 Y55.6723 Z1.96016 E0.270653
G1 X57.3574 Y57.3846 Z1.96506 E0.170899
G1 X55.4293 Y57.0604 Z1.96996 E0.195086
G1 X55.3574 Y59.1956 Z1.97486 E0.213171
G1 X53.8526 Y59.1245 Z1.97976 E0.150318
G1 X53.3475 Y62.0249 Z1.98465 E0.293765
G1 X51.6838 Y61.6536 Z1.98955 E0.170092
G1 X50.2054 Y63.27 Z1.99445 E0.218572
G1 X48.7678 Y60.9039 Z1.99935 E0.276258
G1 X47.2866 Y61.0618 Z2.00424 E0.148625
