
;FLAVOR:Marlin
;TIME:0
;Filament used: 0m
;Layer height: 0
;MINX:0
;MINY:0
;MINZ:0
;MAXX:220
;MAXY:220
;MAXZ:250

; Stonehippo FlowControl Designs © 2022 by George White is licensed under CC BY-SA 4.0.
; To view a copy of this license, visit http://creativecommons.org/licenses/by-sa/4.0/

;Time to print!!!!!
;GCode created with FullControl - tell us what you're printing!
;info@fullcontrol.xyz or tag FullControlXYZ on Twitter/Instagram 

G28 ; home axes
M140 S60 ; set bed temp and continue
M105
M104 S200 ; set hotend temp and continue
M190 S60 ; set bed temp and wait
M105
M109 S200  ; set hotend temp and wait
G90 ; absolute coordinates
G21 ; set units to millimeters
M83 ; relative extrusion
M106 S255 ; set fan speed
M220 S90 ; set speed factor override percentage
M221 S100 ; set extrude factor override percentage
G0 F8000 X0.0 Y0.0 Z10.0
G1 F250 E20.7876
G0 F8000 X10.0 Y10.0 Z0.3
;-----
; END OF STARTING PROCEDURE
;-----

;-----
; START OF PRIMER PROCEDURE
;-----
G0 F8000 Y14.0 Z0.192
G1 F500 X110.0 E9.97804
G1 Y12.0 E0.199561
G1 X10.0 E9.97804
G1 Y14.0 E0.199561
G1 Y16.0 E0.199561
G1 X50.0 E3.99122
G1 Y38.75 E2.27
;-----
; END OF PRIMER PROCEDURE
;-----

G1 F250 X50.5183 Y40.0069 Z0.193983 E0.136107
G1 X51.1689 Y38.7611 Z0.195967 E0.141166
G1 X51.5732 Y39.9608 Z0.19795 E0.127577
G1 X52.3897 Y38.6356 Z0.199934 E0.15736
G1 X52.7303 Y39.6981 Z0.201917 E0.113166
G1 X53.7577 Y38.305 Z0.203901 E0.176139
G1 X54.0676 Y39.2814 Z0.205884 E0.10458
G1 X55.3004 Y37.954 Z0.207868 E0.185537
G1 X55.5423 Y38.9893 Z0.209851 E0.109242
G1 X56.8934 Y37.9084 Z0.211835 E0.178351
G1 X56.9591 Y39.1418 Z0.213818 E0.127727
G1 X58.2919 Y38.4287 Z0.215802 E0.156808
G1 X58.062 Y39.8987 Z0.217785 E0.154838
G1 X59.2679 Y39.5475 Z0.219769 E0.131128
G1 X58.6929 Y41.1637 Z0.221752 E0.17966
G1 X59.7601 Y41.0566 Z0.223736 E0.112683
G1 X58.9018 Y42.6538 Z0.225719 E0.191089
G1 X59.9212 Y42.6419 Z0.227702 E0.10778
G1 X58.9211 Y44.0743 Z0.229686 E0.185266
G1 X60.0206 Y44.068 Z0.231669 E0.116968
G1 X59.0101 Y45.2784 Z0.233653 E0.168256
G1 X60.2589 Y45.2842 Z0.235636 E0.133675
G1 X59.2751 Y46.3055 Z0.23762 E0.152263
G1 X60.6259 Y46.393 Z0.239603 E0.145784
G1 X59.5975 Y47.2876 Z0.241587 E0.147242
G1 X60.9758 Y47.5039 Z0.24357 E0.151177
G1 X59.9537 Y48.2729 Z0.245554 E0.139024
G1 X61.452 Y48.6193 Z0.247537 E0.167645
G1 X60.5368 Y49.2805 Z0.249521 E0.123462
G1 X62.1714 Y49.8009 Z0.251504 E0.188138
G1 X61.3384 Y50.4022 Z0.253488 E0.11301
G1 X62.9924 Y51.1367 Z0.255471 E0.199683
G1 X62.1001 Y51.6939 Z0.257455 E0.116418
G1 X63.5768 Y52.6237 Z0.259438 E0.193698
G1 X62.4555 Y53.0839 Z0.261421 E0.134937
G1 X63.5881 Y54.122 Z0.263405 E0.171544
G1 X62.1511 Y54.3852 Z0.265388 E0.163604
G1 X62.8965 Y55.4245 Z0.267372 E0.14365
G1 X61.1999 Y55.4098 Z0.269355 E0.191111
G1 X61.6551 Y56.3942 Z0.271339 E0.122531
G1 X59.8688 Y56.0996 Z0.273322 E0.205132
G1 X60.202 Y57.061 Z0.275306 E0.115621
G1 X58.5127 Y56.5691 Z0.277289 E0.20051
G1 X58.8577 Y57.5987 Z0.279273 E0.124116
G1 X57.3721 Y57.0189 Z0.281256 E0.182798
G1 X57.7559 Y58.191 Z0.28324 E0.141774
G1 X56.4646 Y57.5775 Z0.285223 E0.164813
G1 X56.8131 Y58.8791 Z0.287207 E0.155787
G1 X55.6354 Y58.1901 Z0.28919 E0.158201
G1 X55.8703 Y59.5562 Z0.291174 E0.161174
G1 X54.8082 Y58.8213 Z0.293157 E0.150598
G1 X54.9565 Y60.3335 Z0.29514 E0.177677
G1 X54.0325 Y59.6607 Z0.297124 E0.134034
G1 X54.0644 Y61.3594 Z0.299107 E0.199788
G1 X53.2299 Y60.7531 Z0.301091 E0.121647
G1 X53.0715 Y62.5524 Z0.303074 E0.213603
G1 X52.2646 Y61.8929 Z0.305058 E0.123581
G1 X51.8667 Y63.6058 Z0.307041 E0.209103
G1 X51.0775 Y62.7153 Z0.309025 E0.141891
G1 X50.4632 Y64.15 Z0.311008 E0.186616
G1 X49.7536 Y62.904 Z0.312992 E0.171927
G1 X49.0076 Y63.9719 Z0.314975 E0.156621
G1 X48.4726 Y62.3832 Z0.316959 E0.202106
G1 X47.6821 Y63.1451 Z0.318942 E0.132729
G1 X47.3829 Y61.3641 Z0.320926 E0.218919
G1 X46.5775 Y61.9848 Z0.322909 E0.123599
G1 X46.501 Y60.2159 Z0.324893 E0.215805
G1 X45.6408 Y60.8574 Z0.326876 E0.13115
G1 X45.7188 Y59.2466 Z0.32886 E0.197627
G1 X44.7402 Y59.9707 Z0.330843 E0.149581
G1 X44.9135 Y58.5389 Z0.332826 E0.177681
G1 X43.7982 Y59.2816 Z0.33481 E0.165532
G1 X44.0745 Y57.9442 Z0.336793 E0.169152
G1 X42.8625 Y58.6009 Z0.338777 E0.171193
G1 X43.2279 Y57.35 Z0.34076 E0.162269
G1 X41.8583 Y57.9659 Z0.342744 E0.18748
G1 X42.215 Y56.8648 Z0.344727 E0.144881
G1 X40.6326 Y57.4344 Z0.346711 E0.211084
G1 X40.9508 Y56.4472 Z0.348694 E0.130516
G1 X39.202 Y56.879 Z0.350678 E0.227264
G1 X39.5652 Y55.9112 Z0.352661 E0.130766
G1 X37.8047 Y56.0969 Z0.354645 E0.224522
G1 X38.3755 Y55.077 Z0.356628 E0.148622
G1 X36.7947 Y54.97 Z0.358612 E0.201998
G1 X37.7186 Y53.9091 Z0.360595 E0.179818
G1 X36.44 Y53.5541 Z0.362579 E0.170044
G1 X37.7488 Y52.5412 Z0.364562 E0.212627
G1 X36.7564 Y52.0383 Z0.366545 E0.143307
G1 X38.3386 Y51.1806 Z0.368529 E0.232411
G1 X37.493 Y50.6143 Z0.370512 E0.13175
G1 X39.153 Y49.9703 Z0.372496 E0.231111
G1 X38.2846 Y49.3603 Z0.374479 E0.1381
G1 X39.8537 Y48.9167 Z0.376463 E0.212725
G1 X38.8717 Y48.2249 Z0.378446 E0.157102
G1 X40.2978 Y47.9321 Z0.38043 E0.190881
G1 X39.2445 Y47.118 Z0.382413 E0.174994
G1 X40.6015 Y46.9518 Z0.384397 E0.180161
G1 X39.5953 Y46.0189 Z0.38638 E0.18127
G1 X40.9082 Y45.9698 Z0.388364 E0.174005
G1 X39.8992 Y44.881 Z0.390347 E0.197081
G1 X41.0713 Y44.8773 Z0.392331 E0.155995
G1 X40.0354 Y43.5751 Z0.394314 E0.222023
G1 X41.0794 Y43.5706 Z0.396298 E0.139643
G1 X40.1086 Y42.0612 Z0.398281 E0.240634
G1 X41.1348 Y42.096 Z0.400264 E0.138011
G1 X40.3795 Y40.4837 Z0.402248 E0.239911
G1 X41.5105 Y40.6843 Z0.404231 E0.15516
G1 X41.0832 Y39.1347 Z0.406215 E0.217657
G1 X42.3648 Y39.6461 Z0.408198 E0.187293
G1 X42.2728 Y38.2975 Z0.410182 E0.183921
G1 X43.6401 Y39.1893 Z0.412165 E0.222659
G1 X43.7902 Y38.0709 Z0.414149 E0.154288
G1 X45.1093 Y39.2835 Z0.416132 E0.245565
G1 X45.3763 Y38.2993 Z0.418116 E0.140109
G1 X46.5252 Y39.6708 Z0.420099 E0.246384
G1 X46.8302 Y38.6656 Z0.422083 E0.145001
G1 X47.7604 Y40.0263 Z0.424066 E0.228073
G1 X48.1039 Y38.8922 Z0.42605 E0.16435
G1 X48.8414 Y40.1643 Z0.428033 E0.204427
G1 X49.2736 Y38.9155 Z0.430017 E0.184155
G1 F500 X49.8658 Y40.1504 Z0.432 E0.136654
G1 X50.424 Y38.9023 Z0.433983 E0.136423
G1 X50.8897 Y40.1413 Z0.435967 E0.132069
G1 X51.5917 Y38.8521 Z0.43795 E0.146469
G1 X51.9651 Y39.9787 Z0.439934 E0.118429
G1 X52.8568 Y38.5955 Z0.441917 E0.164209
G1 X53.1877 Y39.5942 Z0.443901 E0.104976
G1 X54.2972 Y38.194 Z0.445884 E0.178256
G1 X54.5891 Y39.1726 Z0.447868 E0.101896
G1 X55.8726 Y37.9263 Z0.449851 E0.17851
G1 X56.0509 Y39.0418 Z0.451835 E0.112726
G1 X57.391 Y38.1145 Z0.453818 E0.162606
G1 X57.3331 Y39.4664 Z0.455802 E0.135012
G1 X58.5975 Y38.9213 Z0.457785 E0.137386
G1 X58.2097 Y40.4829 Z0.459769 E0.160543
G1 X59.3318 Y40.2521 Z0.461752 E0.114307
G1 X58.6176 Y41.8847 Z0.463736 E0.177815
G1 X59.6391 Y41.822 Z0.465719 E0.102123
G1 X58.7064 Y43.3571 Z0.467702 E0.179226
G1 X59.7468 Y43.3326 Z0.469686 E0.103833
G1 X58.7433 Y44.6619 Z0.471669 E0.166184
G1 X59.9115 Y44.6326 Z0.473653 E0.116604
G1 X58.9291 Y45.7471 Z0.475636 E0.148245
G1 X60.2394 Y45.7588 Z0.47762 E0.130753
G1 X59.2556 Y46.7169 Z0.479603 E0.137023
G1 X60.6133 Y46.8437 Z0.481587 E0.136064
G1 X59.5793 Y47.6837 Z0.48357 E0.13293
G1 X61.0097 Y47.9348 Z0.485554 E0.144903
G1 X60.0439 Y48.6499 Z0.487537 E0.119914
G1 X61.6216 Y49.0472 Z0.489521 E0.162344
G1 X60.7674 Y49.677 Z0.491504 E0.105893
G1 X62.4419 Y50.2716 Z0.493488 E0.177297
G1 X61.6098 Y50.8565 Z0.495471 E0.101486
G1 X63.2127 Y51.6664 Z0.497455 E0.179194
G1 X62.2325 Y52.1915 Z0.499438 E0.110951
G1 X63.5669 Y53.1635 Z0.501421 E0.164724
G1 X62.2972 Y53.5481 Z0.503405 E0.132375
G1 X63.2487 Y54.5782 Z0.505388 E0.139925
G1 X61.6707 Y54.7229 Z0.507372 E0.158109
G1 X62.2689 Y55.7213 Z0.509355 E0.116132
G1 X60.504 Y55.5779 Z0.511339 E0.17668
G1 X60.8939 Y56.5297 Z0.513322 E0.102628
G1 X59.1348 Y56.1399 Z0.515306 E0.179782
G1 X59.4808 Y57.1121 Z0.517289 E0.102971
G1 X57.885 Y56.5799 Z0.519273 E0.167855
G1 X58.2735 Y57.6649 Z0.521256 E0.114989
G1 X56.89 Y57.0806 Z0.52324 E0.149852
G1 X57.2921 Y58.3152 Z0.525223 E0.129554
G1 X56.0657 Y57.6859 Z0.527207 E0.137533
G1 X56.3819 Y59.0096 Z0.52919 E0.135791
G1 X55.2507 Y58.2919 Z0.531174 E0.133676
G1 X55.4672 Y59.713 Z0.533157 E0.143428
G1 X54.4739 Y59.0105 Z0.53514 E0.121392
G1 X54.601 Y60.6135 Z0.537124 E0.160452
G1 X53.729 Y59.9907 Z0.539107 E0.106916
G1 X53.7066 Y61.7565 Z0.541091 E0.176202
G1 X52.8908 Y61.1535 Z0.543074 E0.101221
G1 X52.6468 Y62.9379 Z0.545058 E0.179707
G1 X51.8427 Y62.1941 Z0.547041 E0.1093
G1 X51.3583 Y63.7934 Z0.549025 E0.166736
G1 X50.591 Y62.7432 Z0.551008 E0.129782
G1 X49.9234 Y64.0054 Z0.552992 E0.142479
G1 X49.2783 Y62.5857 Z0.554975 E0.155599
G1 X48.5218 Y63.4956 Z0.556959 E0.118068
G1 X48.0858 Y61.7929 Z0.558942 E0.175382
G1 X47.3059 Y62.4732 Z0.560926 E0.103277
G1 X47.1073 Y60.6784 Z0.562909 E0.18018
G1 X46.2985 Y61.3074 Z0.564893 E0.102231
G1 X46.2932 Y59.609 Z0.566876 E0.169463
G1 X45.397 Y60.3079 Z0.56886 E0.1134
G1 X45.5131 Y58.7938 Z0.570843 E0.15152
G1 X44.4807 Y59.5595 Z0.572826 E0.128261
G1 X44.6874 Y58.1902 Z0.57481 E0.13818
G1 X43.5381 Y58.9143 Z0.576793 E0.135548
G1 X43.86 Y57.6074 Z0.578777 E0.134298
G1 X42.5948 Y58.2602 Z0.58076 E0.142053
G1 X42.9554 Y57.083 Z0.582744 E0.122848
G1 X41.4947 Y57.7085 Z0.584727 E0.158547
G1 X41.8199 Y56.6758 Z0.586711 E0.108036
G1 X40.1529 Y57.22 Z0.588694 E0.174979
G1 X40.4677 Y56.2569 Z0.590678 E0.1011
G1 X38.6976 Y56.6076 Z0.592661 E0.180048
G1 X39.133 Y55.6192 Z0.594645 E0.107776
G1 X37.4444 Y55.6886 Z0.596628 E0.168632
G1 X38.1677 Y54.6383 Z0.598612 E0.127245
G1 X36.7301 Y54.4237 Z0.600595 E0.145036
G1 X37.8396 Y53.365 Z0.602579 E0.153024
G1 X36.7112 Y52.9458 Z0.604562 E0.120108
G1 X38.1667 Y51.9867 Z0.606545 E0.173924
G1 X37.2636 Y51.465 Z0.608529 E0.104066
G1 X38.9004 Y50.6969 Z0.610512 E0.180414
G1 X38.0543 Y50.1301 Z0.612496 E0.101618
G1 X39.6764 Y49.5773 Z0.614479 E0.170996
G1 X38.7453 Y48.9533 Z0.616463 E0.111847
G1 X40.2346 Y48.5785 Z0.618446 E0.153239
G1 X39.1923 Y47.85 Z0.62043 E0.126886
G1 X40.5639 Y47.6088 Z0.622413 E0.138961
G1 X39.5106 Y46.7553 Z0.624397 E0.135278
G1 X40.8568 Y46.6437 Z0.62638 E0.134791
G1 X39.8431 Y45.6623 Z0.628364 E0.140786
G1 X41.0883 Y45.6352 Z0.630347 E0.124271
G1 X40.0413 Y44.4654 Z0.632331 E0.156642
G1 X41.1361 Y44.4543 Z0.634314 E0.109244
G1 X40.0921 Y43.0621 Z0.636298 E0.173637
G1 X41.1055 Y43.0584 Z0.638281 E0.101123
G1 X40.1974 Y41.4972 Z0.640264 E0.180217
G1 X41.2598 Y41.587 Z0.642248 E0.106383
G1 X40.6328 Y39.9984 Z0.644231 E0.170402
G1 X41.8392 Y40.3277 Z0.646215 E0.124773
G1 X41.5599 Y38.8752 Z0.648198 E0.147583
G1 X42.9016 Y39.562 Z0.650182 E0.150396
G1 X42.923 Y38.3371 Z0.652165 E0.122245
G1 X44.2918 Y39.39 Z0.654149 E0.172314
G1 X44.4937 Y38.3573 Z0.656132 E0.104996
G1 X45.7497 Y39.6588 Z0.658116 E0.180481
G1 X46.02 Y38.6819 Z0.660099 E0.101136
G1 X47.0716 Y40.0534 Z0.662083 E0.172443
G1 X47.3693 Y38.9884 Z0.664066 E0.110344
G1 X48.2072 Y40.2964 Z0.66605 E0.154997
G1 X48.564 Y39.0909 Z0.668033 E0.125437
G1 X49.2332 Y40.3226 Z0.670017 E0.139872
G1 X49.7016 Y39.0541 Z0.672 E0.134925
G1 X50.2384 Y40.2977 Z0.673983 E0.135151
G1 X50.8392 Y39.0339 Z0.675967 E0.139635
G1 X51.2606 Y40.2205 Z0.67795 E0.125647
G1 X52.0252 Y38.8712 Z0.679934 E0.154749
G1 X52.3794 Y39.9207 Z0.681917 E0.110529
G1 X53.3533 Y38.4962 Z0.683901 E0.172185
G1 X53.6748 Y39.459 Z0.685884 E0.101287
G1 X54.8564 Y38.093 Z0.687868 E0.180215
G1 X55.1122 Y39.1151 Z0.689851 E0.105125
G1 X56.4194 Y37.9908 Z0.691835 E0.172038
G1 X56.5051 Y39.2142 Z0.693818 E0.122376
G1 X57.8048 Y38.4566 Z0.695802 E0.150108
G1 X57.6023 Y39.9232 Z0.697785 E0.147727
G1 X58.786 Y39.5296 Z0.699769 E0.124471
G1 X58.2435 Y41.1506 Z0.701752 E0.170558
G1 X59.2963 Y41.0034 Z0.703736 E0.106065
G1 X58.4713 Y42.6119 Z0.705719 E0.180376
G1 X59.4801 Y42.5603 Z0.707702 E0.10079
G1 X58.51 Y44.0068 Z0.709686 E0.173791
G1 X59.6003 Y43.9576 Z0.711669 E0.108902
G1 X58.6152 Y45.1817 Z0.713653 E0.156782
G1 X59.8564 Y45.1396 Z0.715636 E0.123927
G1 X58.8942 Y46.1732 Z0.71762 E0.140906
G1 X60.2412 Y46.2094 Z0.719603 E0.134444
G1 X59.2325 Y47.1169 Z0.721587 E0.135382
G1 X60.612 Y47.2805 Z0.72357 E0.138606
G1 X59.6077 Y48.0619 Z0.725554 E0.126966
G1 X61.1122 Y48.3519 Z0.727537 E0.152882
G1 X60.2135 Y49.0224 Z0.729521 E0.11188
G1 X61.8605 Y49.4824 Z0.731504 E0.170635
G1 X61.044 Y50.0906 Z0.733488 E0.10159
G1 X62.7179 Y50.7642 Z0.735471 E0.180043
G1 X61.8425 Y51.3299 Z0.737455 E0.104005
G1 X63.3461 Y52.2037 Z0.739438 E0.173532
G1 X62.2407 Y52.679 Z0.741421 E0.120063
G1 X63.4049 Y53.6706 Z0.743405 E0.152597
G1 X61.9801 Y53.958 Z0.745388 E0.145031
G1 X62.7588 Y54.9619 Z0.747372 E0.126777
G1 X61.0686 Y54.979 Z0.749355 E0.168663
G1 X61.5571 Y55.9367 Z0.751339 E0.107271
G1 X59.7709 Y55.6771 Z0.753322 E0.180098
G1 X60.1384 Y56.6158 Z0.755306 E0.100581
G1 X58.4453 Y56.1573 Z0.757289 E0.17503
G1 X58.8277 Y57.1648 Z0.759273 E0.107531
G1 X57.337 Y56.6138 Z0.761256 E0.15858
G1 X57.7633 Y57.7637 Z0.76324 E0.122367
G1 X56.4671 Y57.1749 Z0.765223 E0.142057
G1 X56.8628 Y58.4564 Z0.767207 E0.133827
G1 X55.6791 Y57.7902 Z0.76919 E0.13553
G1 X55.964 Y59.1405 Z0.771174 E0.137705
G1 X54.8956 Y58.4267 Z0.773157 E0.128214
G1 X55.0987 Y59.9268 Z0.77514 E0.151051
G1 X54.1707 Y59.2727 Z0.777124 E0.113286
G1 X54.2633 Y60.9639 Z0.779107 E0.168998
G1 X53.4272 Y60.3752 Z0.781091 E0.102029
G1 X53.3329 Y62.1737 Z0.783074 E0.179704
G1 X52.5235 Y61.5327 Z0.785058 E0.103025
G1 X52.1877 Y63.2528 Z0.787041 E0.174875
G1 X51.3899 Y62.382 Z0.789025 E0.117842
G1 X50.8305 Y63.8316 Z0.791008 E0.15504
G1 X50.1028 Y62.6049 Z0.792992 E0.14232
G1 X49.4018 Y63.693 Z0.794975 E0.129154
G1 X48.8393 Y62.1205 Z0.796959 E0.166639
G1 X48.0853 Y62.9056 Z0.798942 E0.108611
G1 X47.753 Y61.1361 Z0.800926 E0.179646
G1 X46.9801 Y61.7821 Z0.802909 E0.100513
G1 X46.8704 Y60.0201 Z0.804893 E0.17615
G1 X46.0427 Y60.6899 Z0.806876 E0.106243
G1 X46.0914 Y59.0833 Z0.80886 E0.16038
G1 X45.147 Y59.8403 Z0.810843 E0.12077
G1 X45.295 Y58.4117 Z0.812826 E0.143319
G1 X44.2137 Y59.1924 Z0.81481 E0.133081
G1 X44.4665 Y57.8566 Z0.816793 E0.135652
G1 X43.2853 Y58.5554 Z0.818777 E0.136937
G1 X43.6285 Y57.305 Z0.82076 E0.129383
G1 X42.2877 Y57.9685 Z0.822744 E0.149269
G1 X42.6252 Y56.8693 Z0.824727 E0.114734
G1 X41.0692 Y57.4935 Z0.826711 E0.167285
G1 X41.37 Y56.5102 Z0.828694 E0.1026
G1 X39.6428 Y57.0021 Z0.830678 E0.179203
G1 X39.9878 Y56.0379 Z0.832661 E0.102187
G1 X38.2407 Y56.2851 Z0.834645 E0.176063
G1 X38.7906 Y55.264 Z0.836628 E0.115722
G1 X37.2137 Y55.2144 Z0.838612 E0.157422
G1 X38.1138 Y54.1432 Z0.840595 E0.139607
G1 X36.8308 Y53.8381 Z0.842579 E0.131593
G1 X38.1154 Y52.805 Z0.844562 E0.164494
G1 X37.1129 Y52.3446 Z0.846545 E0.110081
G1 X38.6735 Y51.4595 Z0.848529 E0.179019
G1 X37.8144 Y50.932 Z0.850512 E0.100588
G1 X39.457 Y50.2585 Z0.852496 E0.177141
G1 X38.5723 Y49.688 Z0.854479 E0.105046
G1 X40.1279 Y49.2174 Z0.856463 E0.162168
G1 X39.1258 Y48.5681 Z0.858446 E0.119146
G1 X40.5409 Y48.2519 Z0.86043 E0.144682
G1 X39.4625 Y47.482 Z0.862413 E0.132209
G1 X40.8105 Y47.294 Z0.864397 E0.135805
G1 X39.7745 Y46.4037 Z0.86638 E0.136305
G1 X41.08 Y46.3334 Z0.868364 E0.13046
G1 X40.0354 Y45.2868 Z0.870347 E0.147547
G1 X41.1999 Y45.2651 Z0.872331 E0.116212
G1 X40.1212 Y44.005 Z0.874314 E0.165508
G1 X41.1562 Y43.9852 Z0.876298 E0.103298
G1 X40.1356 Y42.5155 Z0.878281 E0.178544
G1 X41.1526 Y42.5345 Z0.880264 E0.101493
G1 X40.3433 Y40.955 Z0.882248 E0.177089
G1 X41.4684 Y41.1358 Z0.884231 E0.113708
G1 X40.9875 Y39.6089 Z0.886215 E0.159732
G1 X42.2705 Y40.0951 Z0.888198 E0.136902
G1 X42.1292 Y38.7588 Z0.890182 E0.134081
G1 X43.5074 Y39.6216 Z0.892165 E0.162238
G1 X43.6136 Y38.5074 Z0.894149 E0.111679
G1 X44.9513 Y39.6909 Z0.896132 E0.178219
G1 X45.1773 Y38.7062 Z0.898116 E0.100806
G1 X46.3486 Y40.0516 Z0.900099 E0.177995
G1 X46.6113 Y39.0435 Z0.902083 E0.103949
G1 X47.5633 Y40.3825 Z0.904066 E0.163931
G1 X47.8606 Y39.243 Z0.90605 E0.117509
G1 X48.6171 Y40.497 Z0.908033 E0.146139
G1 X48.9996 Y39.2388 Z0.910017 E0.131219
G1 X49.6097 Y40.4582 Z0.912 E0.136044
G1 X50.1182 Y39.1956 Z0.913983 E0.135814
G1 X50.6019 Y40.4208 Z0.915967 E0.131437
