
;FLAVOR:Marlin
;TIME:0
;Filament used: 0m
;Layer height: 0
;MINX:0
;MINY:0
;MINZ:0
;MAXX:220
;MAXY:220
;MAXZ:250

; Stonehippo FlowControl Designs © 2022 by George White is licensed under CC BY-SA 4.0.
; To view a copy of this license, visit http://creativecommons.org/licenses/by-sa/4.0/

;Time to print!!!!!
;GCode created with FullControl - tell us what you're printing!
;info@fullcontrol.xyz or tag FullControlXYZ on Twitter/Instagram 

G28 ; home axes
M140 S60 ; set bed temp and continue
M105
M104 S200 ; set hotend temp and continue
M190 S60 ; set bed temp and wait
M105
M109 S200  ; set hotend temp and wait
G90 ; absolute coordinates
G21 ; set units to millimeters
M83 ; relative extrusion
M106 S255 ; set fan speed
M220 S90 ; set speed factor override percentage
M221 S100 ; set extrude factor override percentage
G0 F8000 X0.0 Y0.0 Z10.0
G1 F250 E20.7876
G0 F8000 X10.0 Y10.0 Z0.3
;-----
; END OF STARTING PROCEDURE
;-----

;-----
; START OF PRIMER PROCEDURE
;-----
G0 F8000 Y14.0 Z0.192
G1 F500 X110.0 E9.97804
G1 Y12.0 E0.199561
G1 X10.0 E9.97804
G1 Y14.0 E0.199561
G1 Y16.0 E0.199561
G1 X50.0 E3.99122
G1 Y38.75 E2.27
;-----
; END OF PRIMER PROCEDURE
;-----

G1 F250 X50.5205 Y40.007 Z0.193983 E0.136204
G1 X51.1739 Y38.7616 Z0.195967 E0.141261
G1 X51.58 Y39.9619 Z0.19795 E0.127683
G1 X52.3999 Y38.6378 Z0.199934 E0.15745
G1 X52.7419 Y39.7012 Z0.201917 E0.113298
G1 X53.7735 Y38.3101 Z0.203901 E0.176229
G1 X54.0845 Y39.2878 Z0.205884 E0.104744
G1 X55.3221 Y37.9636 Z0.207868 E0.185637
G1 X55.5646 Y39.0005 Z0.209851 E0.109425
G1 X56.9206 Y37.924 Z0.211835 E0.178471
G1 X56.986 Y39.1591 Z0.213818 E0.127903
G1 X58.3231 Y38.4512 Z0.215802 E0.156955
G1 X58.0915 Y39.9223 Z0.217785 E0.154988
G1 X59.3008 Y39.5768 Z0.219769 E0.131303
G1 X58.7227 Y41.1932 Z0.221752 E0.179783
G1 X59.7922 Y41.0918 Z0.223736 E0.11287
G1 X58.9299 Y42.6879 Z0.225719 E0.191193
G1 X59.951 Y42.6822 Z0.227702 E0.107953
G1 X58.9463 Y44.1125 Z0.229686 E0.18536
G1 X60.0472 Y44.1132 Z0.231669 E0.117108
G1 X59.0323 Y45.3211 Z0.233653 E0.16835
G1 X60.2822 Y45.335 Z0.235636 E0.13379
G1 X59.2941 Y46.3536 Z0.23762 E0.152363
G1 X60.6452 Y46.4505 Z0.239603 E0.145888
G1 X59.6126 Y47.3417 Z0.241587 E0.147345
G1 X60.9903 Y47.5682 Z0.24357 E0.151279
G1 X59.964 Y48.3335 Z0.245554 E0.139137
G1 X61.4605 Y48.6915 Z0.247537 E0.167741
G1 X60.5413 Y49.3494 Z0.249521 E0.1236
G1 X62.1725 Y49.8831 Z0.251504 E0.188234
G1 X61.3354 Y50.4813 Z0.253488 E0.113183
G1 X62.9839 Y51.2303 Z0.255471 E0.199788
G1 X62.0872 Y51.7837 Z0.257455 E0.116613
G1 X63.5563 Y52.7276 Z0.259438 E0.193824
G1 X62.4308 Y53.182 Z0.261421 E0.135127
G1 X63.5543 Y54.232 Z0.263405 E0.171699
G1 X62.1141 Y54.4863 Z0.265388 E0.163769
G1 X62.8496 Y55.5347 Z0.267372 E0.143835
G1 X61.152 Y55.508 Z0.269355 E0.191246
G1 X61.597 Y56.499 Z0.271339 E0.122732
G1 X59.812 Y56.1905 Z0.273322 E0.205245
G1 X60.1348 Y57.1571 Z0.275306 E0.115809
G1 X58.4487 Y56.6512 Z0.277289 E0.200611
G1 X58.782 Y57.6862 Z0.279273 E0.124271
G1 X57.3006 Y57.0932 Z0.281256 E0.182898
G1 X57.6706 Y58.2709 Z0.28324 E0.141899
G1 X56.384 Y57.6455 Z0.285223 E0.164919
G1 X56.7167 Y58.9523 Z0.287207 E0.155899
G1 X55.5447 Y58.2518 Z0.28919 E0.158312
G1 X55.7624 Y59.6217 Z0.291174 E0.161283
G1 X54.7066 Y58.876 Z0.293157 E0.150717
G1 X54.8351 Y60.3909 Z0.29514 E0.17778
G1 X53.9169 Y59.7082 Z0.297124 E0.134178
G1 X53.926 Y61.408 Z0.299107 E0.19989
G1 X53.0964 Y60.7922 Z0.301091 E0.121828
G1 X52.9129 Y62.5902 Z0.303074 E0.213714
G1 X52.1117 Y61.921 Z0.305058 E0.123789
G1 X51.6888 Y63.629 Z0.307041 E0.209235
G1 X50.9084 Y62.7284 Z0.309025 E0.142097
G1 X50.2719 Y64.155 Z0.311008 E0.186778
G1 X49.5763 Y62.8994 Z0.312992 E0.172105
G1 X48.8126 Y63.9567 Z0.314975 E0.156816
G1 X48.2971 Y62.3602 Z0.316959 E0.202253
G1 X47.4929 Y63.1103 Z0.318942 E0.132943
G1 X47.2168 Y61.3246 Z0.320926 E0.219041
G1 X46.3997 Y61.9326 Z0.322909 E0.123802
G1 X46.3473 Y60.1619 Z0.324893 E0.215913
G1 X45.475 Y60.7894 Z0.326876 E0.131318
G1 X45.5757 Y59.1789 Z0.32886 E0.197733
G1 X44.5837 Y59.8865 Z0.330843 E0.149716
G1 X44.7776 Y58.4565 Z0.332826 E0.177793
G1 X43.6485 Y59.1798 Z0.33481 E0.165651
G1 X43.9447 Y57.8457 Z0.336793 E0.169269
G1 X42.7201 Y58.4808 Z0.338777 E0.171309
G1 X43.1047 Y57.2346 Z0.34076 E0.162394
G1 X41.7232 Y57.8253 Z0.342744 E0.187591
G1 X42.0972 Y56.7288 Z0.344727 E0.14503
G1 X40.5034 Y57.2687 Z0.346711 E0.211192
G1 X40.8375 Y56.2852 Z0.348694 E0.130704
G1 X39.0798 Y56.6833 Z0.350678 E0.22738
G1 X39.4591 Y55.7198 Z0.352661 E0.130986
G1 X37.6942 Y55.8706 Z0.354645 E0.224659
G1 X38.2827 Y54.8588 Z0.356628 E0.148841
G1 X36.7031 Y54.7193 Z0.358612 E0.202166
G1 X37.646 Y53.6733 Z0.360595 E0.180011
G1 X36.3737 Y53.2908 Z0.362579 E0.170248
G1 X37.7014 Y52.3007 Z0.364562 E0.212786
G1 X36.7186 Y51.7754 Z0.366545 E0.143533
G1 X38.3172 Y50.9466 Z0.368529 E0.232542
G1 X37.4831 Y50.3607 Z0.370512 E0.131968
G1 X39.1559 Y49.7481 Z0.372496 E0.231226
G1 X38.3004 Y49.1177 Z0.374479 E0.138282
G1 X39.8787 Y48.7045 Z0.376463 E0.212837
G1 X38.9118 Y47.9897 Z0.378446 E0.157249
G1 X40.3443 Y47.725 Z0.38043 E0.190999
G1 X39.3093 Y46.8861 Z0.382413 E0.175122
G1 X40.6703 Y46.7473 Z0.384397 E0.180285
G1 X39.6857 Y45.7903 Z0.38638 E0.181394
G1 X41.0004 Y45.7681 Z0.388364 E0.174135
G1 X40.0171 Y44.6549 Z0.390347 E0.197199
G1 X41.1901 Y44.6756 Z0.392331 E0.15615
G1 X40.1856 Y43.3479 Z0.394314 E0.222137
G1 X41.2309 Y43.3654 Z0.396298 E0.139838
G1 X40.2973 Y41.8317 Z0.398281 E0.240755
G1 X41.3242 Y41.8886 Z0.400264 E0.138241
G1 X40.6094 Y40.2567 Z0.402248 E0.240053
G1 X41.7375 Y40.4825 Z0.404231 E0.155395
G1 X41.3501 Y38.921 Z0.406215 E0.217832
G1 X42.6213 Y39.4618 Z0.408198 E0.187501
G1 X42.565 Y38.1097 Z0.410182 E0.184133
G1 X43.9123 Y39.0337 Z0.412165 E0.222831
G1 X44.0931 Y37.9181 Z0.414149 E0.154527
G1 X45.3836 Y39.1625 Z0.416132 E0.245707
G1 X45.6782 Y38.1844 Z0.418116 E0.140343
G1 X46.7939 Y39.5843 Z0.420099 E0.246507
G1 X47.1273 Y38.5867 Z0.422083 E0.145198
G1 X48.024 Y39.9707 Z0.424066 E0.228191
G1 X48.3998 Y38.8458 Z0.42605 E0.164508
G1 X49.1054 Y40.1367 Z0.428033 E0.20455
G1 X49.5734 Y38.9 Z0.430017 E0.18429
G1 F500 X50.1342 Y40.1504 Z0.432 E0.136747
G1 X50.7287 Y38.9182 Z0.433983 E0.136516
G1 X51.1625 Y40.1697 Z0.435967 E0.132166
G1 X51.9023 Y38.9009 Z0.43795 E0.146558
G1 X52.2464 Y40.038 Z0.439934 E0.118542
G1 X53.1792 Y38.6812 Z0.441917 E0.164294
G1 X53.484 Y39.6896 Z0.443901 E0.105118
G1 X54.6357 Y38.3228 Z0.445884 E0.178345
G1 X54.9017 Y39.3105 Z0.447868 E0.102064
G1 X56.2235 Y38.1034 Z0.449851 E0.178613
G1 X56.3716 Y39.2251 Z0.451835 E0.112899
G1 X57.741 Y38.3395 Z0.453818 E0.162731
G1 X57.6453 Y39.6908 Z0.455802 E0.135167
G1 X58.9279 Y39.1858 Z0.457785 E0.137539
G1 X58.4952 Y40.7368 Z0.459769 E0.160671
G1 X59.626 Y40.5424 Z0.461752 E0.11448
G1 X58.8638 Y42.1544 Z0.463736 E0.177919
G1 X59.8886 Y42.1255 Z0.465719 E0.102293
G1 X58.9101 Y43.6329 Z0.467702 E0.179316
G1 X59.9521 Y43.6432 Z0.469686 E0.103978
G1 X58.9084 Y44.9422 Z0.471669 E0.166268
G1 X60.0781 Y44.9523 Z0.473653 E0.116719
G1 X59.0614 Y46.0369 Z0.475636 E0.148333
G1 X60.3716 Y46.0931 Z0.47762 E0.130851
G1 X59.3579 Y47.0208 Z0.479603 E0.137115
G1 X60.7114 Y47.1944 Z0.481587 E0.136157
G1 X59.6507 Y48.0021 Z0.48357 E0.133026
G1 X61.0724 Y48.3028 Z0.485554 E0.144992
G1 X60.0835 Y48.9877 Z0.487537 E0.120025
G1 X61.6472 Y49.4403 Z0.489521 E0.162428
G1 X60.7722 Y50.0433 Z0.491504 E0.106031
G1 X62.4253 Y50.6973 Z0.493488 E0.177385
G1 X61.5734 Y51.256 Z0.495471 E0.101652
G1 X63.147 Y52.1236 Z0.497455 E0.179295
G1 X62.1486 Y52.6171 Z0.499438 E0.111125
G1 X63.4474 Y53.6382 Z0.501421 E0.164846
G1 X62.1641 Y53.9806 Z0.503405 E0.132532
G1 X63.0774 Y55.0467 Z0.505388 E0.140074
G1 X61.4942 Y55.1377 Z0.507372 E0.158239
G1 X62.0548 Y56.1596 Z0.509355 E0.116303
G1 X60.2949 Y55.955 Z0.511339 E0.176786
G1 X60.6484 Y56.9228 Z0.513322 E0.1028
G1 X58.9032 Y56.471 Z0.515306 E0.179873
G1 X59.2117 Y57.4574 Z0.517289 E0.103119
G1 X57.6351 Y56.8683 Z0.519273 E0.167939
G1 X57.9812 Y57.9688 Z0.521256 E0.115106
G1 X56.6188 Y57.3347 Z0.52324 E0.149938
G1 X56.9723 Y58.5851 Z0.525223 E0.129652
G1 X55.7689 Y57.9112 Z0.527207 E0.137624
G1 X56.0324 Y59.2473 Z0.52919 E0.135884
G1 X54.9275 Y58.4879 Z0.531174 E0.13377
G1 X55.0869 Y59.9174 Z0.533157 E0.143517
G1 X54.1195 Y59.1779 Z0.53514 E0.121499
G1 X54.1816 Y60.7856 Z0.537124 E0.160536
G1 X53.3324 Y60.1299 Z0.539107 E0.10705
G1 X53.2378 Y61.8941 Z0.541091 E0.176289
G1 X52.444 Y61.2599 Z0.543074 E0.101384
G1 X52.1261 Y63.0336 Z0.545058 E0.179806
G1 X51.3497 Y62.2585 Z0.547041 E0.109473
G1 X50.7982 Y63.8371 Z0.549025 E0.166855
G1 X50.0712 Y62.7567 Z0.551008 E0.129941
G1 X49.3495 Y63.9905 Z0.552992 E0.142625
G1 X48.7603 Y62.5453 Z0.554975 E0.155731
G1 X47.9639 Y63.4228 Z0.556959 E0.118236
G1 X47.5963 Y61.7029 Z0.558942 E0.175489
G1 X46.7858 Y62.3495 Z0.560926 E0.103448
G1 X46.6603 Y60.5472 Z0.562909 E0.180271
G1 X45.8232 Y61.1406 Z0.564893 E0.102381
G1 X45.8877 Y59.4426 Z0.566876 E0.169547
G1 X44.9602 Y60.1015 Z0.56886 E0.113519
G1 X45.1391 Y58.5927 Z0.570843 E0.151606
G1 X44.0726 Y59.3119 Z0.572826 E0.12836
G1 X44.3365 Y57.9516 Z0.57481 E0.138271
G1 X43.1548 Y58.6235 Z0.576793 E0.13564
G1 X43.532 Y57.3305 Z0.578777 E0.134391
G1 X42.2375 Y57.9253 Z0.58076 E0.142142
G1 X42.6481 Y56.7635 Z0.582744 E0.122953
G1 X41.1595 Y57.3217 Z0.584727 E0.158631
G1 X41.529 Y56.3026 Z0.586711 E0.108167
G1 X39.8377 Y56.7692 Z0.588694 E0.175065
G1 X40.1943 Y55.8191 Z0.590678 E0.10126
G1 X38.4088 Y56.0868 Z0.592661 E0.180145
G1 X38.8876 Y55.1166 Z0.594645 E0.107949
G1 X37.1964 Y55.1059 Z0.596628 E0.168748
G1 X37.9662 Y54.0872 Z0.598612 E0.127405
G1 X36.5392 Y53.8035 Z0.600595 E0.145178
G1 X37.696 Y52.7946 Z0.602579 E0.153158
G1 X36.5879 Y52.3203 Z0.604562 E0.120274
G1 X38.0863 Y51.4276 Z0.606545 E0.174034
G1 X37.2085 Y50.8612 Z0.608529 E0.104238
G1 X38.8798 Y50.1689 Z0.610512 E0.180506
G1 X38.0617 Y49.5598 Z0.612496 E0.10177
G1 X39.7086 Y49.0827 Z0.614479 E0.17108
G1 X38.8088 Y48.4122 Z0.616463 E0.111969
G1 X40.3148 Y48.1075 Z0.618446 E0.153324
G1 X39.3096 Y47.327 Z0.62043 E0.126985
G1 X40.692 Y47.1507 Z0.622413 E0.139051
G1 X39.6824 Y46.2444 Z0.624397 E0.13537
G1 X41.0334 Y46.197 Z0.62638 E0.134884
G1 X40.0704 Y45.1645 Z0.628364 E0.140875
G1 X41.3165 Y45.1972 Z0.630347 E0.124373
G1 X40.3304 Y43.9746 Z0.632331 E0.156726
G1 X41.4257 Y44.0163 Z0.634314 E0.109371
G1 X40.4545 Y42.5713 Z0.636298 E0.173722
G1 X41.4685 Y42.6168 Z0.638281 E0.10128
G1 X40.6427 Y41.0094 Z0.640264 E0.180312
G1 X41.7011 Y41.1513 Z0.642248 E0.106555
G1 X41.1586 Y39.5308 Z0.644231 E0.170516
G1 X42.3487 Y39.9198 Z0.646215 E0.124935
G1 X42.1473 Y38.4531 Z0.648198 E0.147722
G1 X43.454 Y39.207 Z0.650182 E0.150532
G1 X43.5418 Y37.9834 Z0.652165 E0.122408
G1 X44.8562 Y39.1052 Z0.654149 E0.172425
G1 X45.1146 Y38.0834 Z0.656132 E0.105168
G1 X46.3028 Y39.4484 Z0.658116 E0.180573
G1 X46.627 Y38.4864 Z0.660099 E0.10129
G1 X47.6064 Y39.9113 Z0.662083 E0.172527
G1 X47.963 Y38.8632 Z0.664066 E0.110468
G1 X48.7319 Y40.214 Z0.66605 E0.155081
G1 X49.1555 Y39.0293 Z0.668033 E0.125538
G1 X49.7594 Y40.2953 Z0.670017 E0.13996
G1 X50.2984 Y39.0541 Z0.672 E0.135017
G1 X50.7687 Y40.3253 Z0.673983 E0.135242
G1 X51.4403 Y39.0965 Z0.675967 E0.139724
G1 X51.798 Y40.3049 Z0.67795 E0.125748
G1 X52.6383 Y39.0004 Z0.679934 E0.154833
G1 X52.9361 Y40.0686 Z0.681917 E0.110652
G1 X53.9903 Y38.7014 Z0.683901 E0.172269
G1 X54.2599 Y39.6816 Z0.685884 E0.10144
G1 X55.5188 Y38.3852 Z0.687868 E0.180307
G1 X55.719 Y39.4213 Z0.689851 E0.105296
G1 X57.0903 Y38.3743 Z0.691835 E0.172149
G1 X57.1088 Y39.6022 Z0.693818 E0.122539
G1 X58.452 Y38.9218 Z0.695802 E0.150244
G1 X58.1682 Y40.3762 Z0.697785 E0.147866
G1 X59.3748 Y40.0533 Z0.699769 E0.124632
G1 X58.7417 Y41.6423 Z0.701752 E0.17067
G1 X59.8031 Y41.5585 Z0.703736 E0.106237
G1 X58.8876 Y43.1184 Z0.705719 E0.18047
G1 X59.8992 Y43.1279 Z0.707702 E0.100946
G1 X58.8474 Y44.5172 Z0.709686 E0.173875
G1 X59.9399 Y44.5343 Z0.711669 E0.109028
G1 X58.8853 Y45.7001 Z0.713653 E0.156865
G1 X60.1279 Y45.7339 Z0.715636 E0.124029
G1 X59.1067 Y46.7105 Z0.71762 E0.140994
G1 X60.4497 Y46.8294 Z0.719603 E0.134535
G1 X59.3891 Y47.6769 Z0.721587 E0.135472
G1 X60.7567 Y47.9256 Z0.72357 E0.138695
G1 X59.7074 Y48.6472 Z0.725554 E0.127064
G1 X61.1918 Y49.0303 Z0.727537 E0.152965
G1 X60.2541 Y49.6472 Z0.729521 E0.112
G1 X61.87 Y50.2095 Z0.731504 E0.170718
G1 X61.0176 Y50.769 Z0.733488 E0.10174
G1 X62.6466 Y51.5471 Z0.735471 E0.180134
G1 X61.7374 Y52.0604 Z0.737455 E0.104175
G1 X63.1835 Y53.0286 Z0.739438 E0.17364
G1 X62.0498 Y53.4369 Z0.741421 E0.120227
G1 X63.149 Y54.5022 Z0.743405 E0.15273
G1 X61.7079 Y54.7025 Z0.745388 E0.145172
G1 X62.4207 Y55.7562 Z0.747372 E0.126936
G1 X60.7315 Y55.6691 Z0.749355 E0.168778
G1 X61.157 Y56.6583 Z0.751339 E0.107442
G1 X59.3895 Y56.288 Z0.753322 E0.180193
G1 X59.6948 Y57.2503 Z0.755306 E0.100739
G1 X58.0329 Y56.6863 Z0.757289 E0.175114
G1 X58.3482 Y57.7182 Z0.759273 E0.10766
G1 X56.8944 Y57.0739 Z0.761256 E0.158663
G1 X57.2437 Y58.2505 Z0.76324 E0.122471
G1 X55.9867 Y57.5803 Z0.765223 E0.142144
G1 X56.2962 Y58.8863 Z0.767207 E0.133919
G1 X55.1567 Y58.1454 Z0.76919 E0.13562
G1 X55.3504 Y59.5127 Z0.771174 E0.137794
G1 X54.3292 Y58.7312 Z0.773157 E0.128311
G1 X54.4307 Y60.2424 Z0.77514 E0.151135
G1 X53.5459 Y59.5291 Z0.777124 E0.113402
G1 X53.5235 Y61.2235 Z0.779107 E0.16908
G1 X52.7261 Y60.5811 Z0.781091 E0.102175
G1 X52.5089 Y62.3698 Z0.783074 E0.179793
G1 X51.7417 Y61.6763 Z0.785058 E0.103193
G1 X51.288 Y63.3703 Z0.787041 E0.174981
G1 X50.548 Y62.4477 Z0.789025 E0.118008
G1 X49.8885 Y63.8561 Z0.791008 E0.155169
G1 X49.2431 Y62.5825 Z0.792992 E0.142463
G1 X48.4664 Y63.62 Z0.794975 E0.12931
G1 X48.0101 Y62.0123 Z0.796959 E0.166755
G1 X47.2011 Y62.7431 Z0.798942 E0.108781
G1 X46.989 Y60.9543 Z0.800926 E0.179742
G1 X46.1707 Y61.5444 Z0.802909 E0.100673
G1 X46.1812 Y59.7782 Z0.804893 E0.176234
G1 X45.3066 Y60.3878 Z0.806876 E0.106374
G1 X45.4652 Y58.7875 Z0.80886 E0.160462
G1 X44.468 Y59.4753 Z0.810843 E0.120874
G1 X44.7142 Y58.0594 Z0.812826 E0.143405
G1 X43.5786 Y58.7606 Z0.81481 E0.133172
G1 X43.9234 Y57.4446 Z0.816793 E0.135742
G1 X42.6939 Y58.0563 Z0.818777 E0.137025
G1 X43.1236 Y56.8319 Z0.82076 E0.129477
G1 X41.7373 Y57.3962 Z0.822744 E0.149353
G1 X42.1511 Y56.3221 Z0.824727 E0.114847
G1 X40.5528 Y56.8309 Z0.826711 E0.167366
G1 X40.9223 Y55.8698 Z0.828694 E0.102743
G1 X39.1626 Y56.2332 Z0.830678 E0.179291
G1 X39.5755 Y55.2942 Z0.832661 E0.102353
G1 X37.8138 Y55.411 Z0.834645 E0.176166
G1 X38.4356 Y54.4301 Z0.836628 E0.115888
G1 X36.8656 Y54.2624 Z0.838612 E0.157548
G1 X37.8412 Y53.2574 Z0.840595 E0.139751
G1 X36.5834 Y52.8557 Z0.842579 E0.131745
G1 X37.9404 Y51.9174 Z0.844562 E0.164612
G1 X36.9743 Y51.3811 Z0.846545 E0.11025
G1 X38.5962 Y50.6118 Z0.848529 E0.179117
G1 X37.7788 Y50.019 Z0.850512 E0.100749
G1 X39.4673 Y49.4678 Z0.852496 E0.177226
G1 X38.6281 Y48.83 Z0.854479 E0.105179
G1 X40.215 Y48.4755 Z0.856463 E0.162249
G1 X39.2652 Y47.7501 Z0.858446 E0.119252
G1 X40.7007 Y47.5397 Z0.86043 E0.144767
G1 X39.6845 Y46.6879 Z0.862413 E0.1323
G1 X41.0437 Y46.601 Z0.864397 E0.135894
G1 X40.0795 Y45.632 Z0.86638 E0.136394
G1 X41.3876 Y45.6598 Z0.868364 E0.130553
G1 X40.4277 Y44.534 Z0.870347 E0.147631
G1 X41.5916 Y44.6 Z0.872331 E0.116323
G1 X40.6148 Y43.2584 Z0.874314 E0.165589
G1 X41.6498 Y43.3169 Z0.876298 E0.103437
G1 X40.7482 Y41.7703 Z0.878281 E0.178631
G1 X41.7624 Y41.8665 Z0.880264 E0.101657
G1 X41.0811 Y40.2267 Z0.882248 E0.17719
G1 X42.1908 Y40.4933 Z0.884231 E0.113874
G1 X41.8338 Y38.9315 Z0.886215 E0.159855
G1 X43.0769 Y39.5156 Z0.888198 E0.137049
G1 X43.0442 Y38.1707 Z0.890182 E0.134231
G1 X44.3521 Y39.1387 Z0.892165 E0.162359
G1 X44.5492 Y38.0353 Z0.894149 E0.111846
G1 X45.7909 Y39.3206 Z0.896132 E0.178318
G1 X46.0974 Y38.3562 Z0.898116 E0.100969
G1 X47.1595 Y39.7905 Z0.900099 E0.17808
G1 X47.5048 Y38.8062 Z0.902083 E0.104085
G1 X48.3481 Y40.2171 Z0.904066 E0.164012
G1 X48.7389 Y39.105 Z0.90605 E0.117617
G1 X49.3935 Y40.4161 Z0.908033 E0.146222
G1 X49.8794 Y39.1931 Z0.910017 E0.131311
G1 X50.3903 Y40.4582 Z0.912 E0.136133
G1 X51.0025 Y39.2415 Z0.913983 E0.135902
G1 X51.3865 Y40.5026 Z0.915967 E0.131529
