
;FLAVOR:Marlin
;TIME:0
;Filament used: 0m
;Layer height: 0
;MINX:0
;MINY:0
;MINZ:0
;MAXX:220
;MAXY:220
;MAXZ:250

; Stonehippo FlowControl Designs © 2022 by George White is licensed under CC BY-SA 4.0.
; To view a copy of this license, visit http://creativecommons.org/licenses/by-sa/4.0/

;Time to print!!!!!
;GCode created with FullControl - tell us what you're printing!
;info@fullcontrol.xyz or tag FullControlXYZ on Twitter/Instagram

G28 ; home axes
M140 S60 ; set bed temp and continue
M105
M104 S200 ; set hotend temp and continue
M190 S60 ; set bed temp and wait
M105
M109 S200  ; set hotend temp and wait
G90 ; absolute coordinates
G21 ; set units to millimeters
M83 ; relative extrusion
M106 S255 ; set fan speed
M220 S90 ; set speed factor override percentage
M221 S100 ; set extrude factor override percentage
G0 F8000 X0.0 Y0.0 Z10.0
G1 F250 E20.7876
G0 F8000 X10.0 Y10.0 Z0.3
;-----
; END OF STARTING PROCEDURE
;-----

;-----
; START OF PRIMER PROCEDURE
;-----
G0 F8000 Y14.0 Z0.192
G1 F500 X110.0 E9.97804
G1 Y12.0 E0.199561
G1 X10.0 E9.97804
G1 Y14.0 E0.199561
G1 Y16.0 E0.199561
G1 X50.0 E3.99122
G1 Y39.25 E2.31989
;-----
; END OF PRIMER PROCEDURE
;-----

G1 F250 X50.6206 Y40.0193 Z0.194376 E0.0990184
G1 X51.3316 Y39.3344 Z0.196752 E0.0992843
G1 X51.8441 Y40.217 Z0.199129 E0.103049
G1 X52.5783 Y39.8355 Z0.201505 E0.0838723
G1 X52.8108 Y41.2409 Z0.203881 E0.144955
G1 X53.3579 Y41.4095 Z0.206257 E0.0584811
G1 X53.38 Y42.7213 Z0.208634 E0.134532
G1 X54.2752 Y42.1151 Z0.21101 E0.111293
G1 X54.7165 Y42.4594 Z0.213386 E0.057836
G1 X55.9965 Y41.6191 Z0.215762 E0.158833
G1 X56.2526 Y42.3177 Z0.218139 E0.0774771
G1 X57.2934 Y42.0963 Z0.220515 E0.111222
G1 X57.2374 Y43.0737 Z0.222891 E0.10272
G1 X58.2277 Y43.0512 Z0.225267 E0.104315
G1 X58.0424 Y44.0218 Z0.227644 E0.104452
G1 X59.0272 Y44.1228 Z0.23002 E0.105043
G1 X58.7085 Y45.0713 Z0.232396 E0.106569
G1 X59.5629 Y45.3462 Z0.234772 E0.0959426
G1 X58.7754 Y46.3846 Z0.237149 E0.139823
G1 X59.0422 Y46.916 Z0.239525 E0.0640284
G1 X57.8833 Y47.8471 Z0.241901 E0.160671
G1 X58.6423 Y48.2077 Z0.244277 E0.091155
G1 X58.5113 Y48.7799 Z0.246653 E0.0639059
G1 X60.041 Y49.1922 Z0.24903 E0.17311
G1 X59.8154 Y49.8216 Z0.251406 E0.0733251
G1 X60.7421 Y50.4722 Z0.253782 E0.124619
G1 X59.9806 Y51.0623 Z0.256158 E0.106403
G1 X60.6381 Y51.8057 Z0.258535 E0.110015
G1 X59.7768 Y52.2917 Z0.260911 E0.110013
G1 X60.3353 Y53.1106 Z0.263287 E0.110658
G1 X59.4157 Y53.4846 Z0.265663 E0.111216
G1 X59.8144 Y54.3424 Z0.26804 E0.106349
G1 X58.6307 Y54.4786 Z0.270416 E0.134426
G1 X58.4803 Y55.0922 Z0.272792 E0.0715288
G1 X56.9381 Y54.776 Z0.275168 E0.178856
G1 X56.9282 Y55.4325 Z0.277545 E0.0748567
G1 X56.2308 Y55.5434 Z0.279921 E0.0807857
G1 X56.8989 Y56.9514 Z0.282297 E0.178901
G1 X56.3721 Y57.2724 Z0.284673 E0.0710693
G1 X56.5528 Y58.4886 Z0.28705 E0.142119
G1 X55.6366 Y58.3228 Z0.289426 E0.107983
G1 X55.4951 Y59.3104 Z0.291802 E0.116107
G1 X54.567 Y58.9666 Z0.294178 E0.115572
G1 X54.3005 Y59.9223 Z0.296554 E0.116246
G1 X53.4216 Y59.4652 Z0.298931 E0.11647
G1 X53.032 Y60.3576 Z0.301307 E0.114867
G1 X52.1845 Y59.6481 Z0.303683 E0.130812
G1 X51.6307 Y60.0687 Z0.306059 E0.0825855
G1 X50.8592 Y58.6985 Z0.308436 E0.187353
G1 X50.3238 Y58.9044 Z0.310812 E0.0685679
G1 X49.7898 Y58.1591 Z0.313188 E0.109965
G1 X49.1668 Y59.4587 Z0.315564 E0.173421
G1 X48.5871 Y59.3512 Z0.317941 E0.0711857
G1 X47.7578 Y60.4141 Z0.320317 E0.163283
G1 X47.2774 Y59.6801 Z0.322693 E0.106593
G1 X46.426 Y60.2244 Z0.325069 E0.12319
G1 X46.0883 Y59.294 Z0.327446 E0.121066
G1 X45.1851 Y59.7065 Z0.329822 E0.121839
G1 X44.9656 Y58.7402 Z0.332198 E0.121973
G1 X44.0223 Y59.0311 Z0.334574 E0.121904
G1 X43.9706 Y57.9841 Z0.33695 E0.12987
G1 X43.1948 Y57.9349 Z0.339327 E0.0966203
G1 X43.6718 Y56.5129 Z0.341703 E0.187001
G1 X43.2434 Y56.1407 Z0.344079 E0.0709829
G1 X43.6812 Y55.0637 Z0.346455 E0.145866
G1 X42.4618 Y55.3076 Z0.348832 E0.156526
G1 X42.171 Y54.8147 Z0.351208 E0.0722565
G1 X40.7091 Y54.9468 Z0.353584 E0.185909
G1 X40.8645 Y54.1583 Z0.35596 E0.102106
G1 X39.8668 Y53.8727 Z0.358337 E0.132256
G1 X40.3557 Y53.0145 Z0.360713 E0.126264
G1 X39.4573 Y52.5894 Z0.363089 E0.127447
G1 X40.0535 Y51.797 Z0.365465 E0.127553
G1 X39.2166 Y51.2634 Z0.367842 E0.12806
G1 X39.9393 Y50.5491 Z0.370218 E0.131509
G1 X39.3572 Y49.9194 Z0.372594 E0.111331
G1 X40.6202 Y49.3453 Z0.37497 E0.180643
G1 X40.6513 Y48.7608 Z0.377347 E0.0764532
G1 X41.9916 Y48.4275 Z0.379723 E0.180921
G1 X41.2836 Y47.7186 Z0.382099 E0.131648
G1 X41.5515 Y47.2181 Z0.384475 E0.0748212
G1 X40.403 Y46.1645 Z0.386851 E0.206016
G1 X40.9784 Y45.7273 Z0.389228 E0.0958121
G1 X40.4956 Y44.7531 Z0.391604 E0.144585
G1 X41.4569 Y44.566 Z0.39398 E0.130621
G1 X41.2024 Y43.604 Z0.396356 E0.133108
G1 X42.1932 Y43.5472 Z0.398733 E0.133153
G1 X42.0606 Y42.5615 Z0.401109 E0.133827
G1 X43.0589 Y42.6362 Z0.403485 E0.135097
G1 X43.1114 Y41.7171 Z0.405861 E0.124597
G1 X44.2865 Y42.1908 Z0.408238 E0.171982
G1 X44.7326 Y41.7739 Z0.410614 E0.083131
G1 X45.9443 Y42.7055 Z0.41299 E0.208675
G1 X46.1641 Y41.9634 Z0.415366 E0.10597
G1 X46.782 Y42.018 Z0.417743 E0.0851832
G1 X46.8169 Y40.4306 Z0.420119 E0.21866
G1 X47.4706 Y40.4542 Z0.422495 E0.0903504
G1 X47.8779 Y39.3626 Z0.424871 E0.161372
G1 X48.6368 Y39.9488 Z0.427248 E0.133205
G1 X49.2084 Y39.131 Z0.429624 E0.138989
G1 F500 X49.8924 Y39.8513 Z0.432 E0.0991148
G1 X50.5612 Y39.1137 Z0.434376 E0.0993452
G1 X51.1506 Y39.9163 Z0.436752 E0.0993528
G1 X51.8978 Y39.3112 Z0.439129 E0.0959375
G1 X52.3293 Y40.3911 Z0.441505 E0.11604
G1 X52.984 Y40.3511 Z0.443881 E0.0654492
G1 X53.0545 Y41.9348 Z0.446257 E0.158187
G1 X53.6733 Y41.8649 Z0.448634 E0.0621446
G1 X53.9114 Y42.6001 Z0.45101 E0.0771039
G1 X55.1058 Y41.6411 Z0.453386 E0.15284
G1 X55.5638 Y42.047 Z0.455762 E0.0610603
G1 X56.7319 Y41.5473 Z0.458139 E0.126775
G1 X56.8075 Y42.4641 Z0.460515 E0.0917954
G1 X57.8077 Y42.3678 Z0.462891 E0.100265
G1 X57.6999 Y43.3559 Z0.465267 E0.0991802
G1 X58.6957 Y43.3919 Z0.467644 E0.0994318
G1 X58.4657 Y44.3597 Z0.47002 E0.0992542
G1 X59.435 Y44.5274 Z0.472396 E0.0981492
G1 X58.9771 Y45.513 Z0.474772 E0.108447
G1 X59.5657 Y45.9398 Z0.477149 E0.0725528
G1 X58.4439 Y47.0198 Z0.479525 E0.155377
G1 X58.7264 Y47.5172 Z0.481901 E0.0570807
G1 X58.0374 Y48.2441 Z0.484277 E0.0999342
G1 X59.3881 Y48.5525 Z0.486653 E0.138243
G1 X59.4351 Y49.1402 Z0.48903 E0.0588305
G1 X60.7133 Y49.6917 Z0.491406 E0.138899
G1 X60.1476 Y50.3384 Z0.493782 E0.0857326
G1 X60.8879 Y51.0423 Z0.496158 E0.101935
G1 X60.0648 Y51.5989 Z0.498535 E0.0991464
G1 X60.6796 Y52.3842 Z0.500911 E0.0995173
G1 X59.792 Y52.8343 Z0.503287 E0.0993031
G1 X60.3001 Y53.6883 Z0.505663 E0.0991478
G1 X59.3093 Y54.0015 Z0.50804 E0.103683
G1 X59.4815 Y54.7932 Z0.510416 E0.0808502
G1 X58.0168 Y54.699 Z0.512792 E0.146454
G1 X57.7357 Y55.205 Z0.515168 E0.0577565
G1 X56.5099 Y54.994 Z0.517545 E0.124108
G1 X56.9684 Y56.0686 Z0.519921 E0.11658
G1 X56.5455 Y56.457 Z0.522297 E0.0572954
G1 X57.0495 Y57.8756 Z0.524673 E0.150221
G1 X56.2712 Y57.9482 Z0.52705 E0.0780006
G1 X56.2375 Y59.003 Z0.529426 E0.105298
G1 X55.2834 Y58.7388 Z0.531802 E0.0987819
G1 X55.079 Y59.7159 Z0.534178 E0.0996114
G1 X54.1613 Y59.3289 Z0.536554 E0.0993846
G1 X53.8369 Y60.2722 Z0.538931 E0.0995344
G1 X52.9671 Y59.7516 Z0.541307 E0.101144
G1 X52.4949 Y60.5007 Z0.543683 E0.0883612
G1 X51.6352 Y59.4603 Z0.546059 E0.134662
G1 X51.0494 Y59.5842 Z0.548436 E0.0597504
G1 X50.3901 Y58.3018 Z0.550812 E0.143882
G1 X49.8627 Y59.0614 Z0.553188 E0.0922713
G1 X49.3134 Y58.8694 Z0.555564 E0.0580589
G1 X48.5611 Y60.2576 Z0.557941 E0.157545
G1 X47.9882 Y59.8501 Z0.560317 E0.070153
G1 X47.1455 Y60.578 Z0.562693 E0.111113
G1 X46.7263 Y59.6939 Z0.565069 E0.0976306
G1 X45.8464 Y60.1687 Z0.567446 E0.0997625
G1 X45.5488 Y59.2173 Z0.569822 E0.0994698
G1 X44.6172 Y59.5782 Z0.572198 E0.0996893
G1 X44.4438 Y58.5907 Z0.574574 E0.100042
G1 X43.5205 Y58.772 Z0.57695 E0.0938895
G1 X43.6646 Y57.5476 Z0.579327 E0.12302
G1 X43.1205 Y57.2322 Z0.581703 E0.0627526
G1 X43.7481 Y55.8041 Z0.584079 E0.15565
G1 X43.0385 Y55.701 Z0.586455 E0.0715572
G1 X43.0048 Y55.037 Z0.588832 E0.0663363
G1 X41.4603 Y55.3773 Z0.591208 E0.157807
G1 X41.2881 Y54.7578 Z0.593584 E0.0641669
G1 X40.0934 Y54.6367 Z0.59596 E0.119818
G1 X40.466 Y53.76 Z0.598337 E0.095052
G1 X39.5315 Y53.3943 Z0.600713 E0.100133
G1 X40.0659 Y52.5518 Z0.603089 E0.0995512
G1 X39.1886 Y52.0718 Z0.605465 E0.099784
G1 X39.8251 Y51.3016 Z0.607842 E0.0997003
G1 X39.047 Y50.7143 Z0.610218 E0.0972716
G1 X39.9563 Y50.0303 Z0.612594 E0.113534
G1 X39.7147 Y49.3916 Z0.61497 E0.0681399
G1 X41.2337 Y48.9324 Z0.617347 E0.158338
G1 X41.0899 Y48.3483 Z0.619723 E0.0600243
G1 X41.8413 Y47.9567 Z0.622099 E0.0845512
G1 X40.6642 Y47.0352 Z0.624475 E0.149167
G1 X40.9218 Y46.483 Z0.626851 E0.0607976
G1 X40.1157 Y45.4463 Z0.629228 E0.131035
G1 X40.9683 Y45.1382 Z0.631604 E0.0904614
G1 X40.6348 Y44.1816 Z0.63398 E0.101086
G1 X41.6236 Y44.0449 Z0.636356 E0.0995984
G1 X41.4251 Y43.0639 Z0.638733 E0.0998699
G1 X42.4239 Y43.0512 Z0.641109 E0.0996734
G1 X42.3566 Y42.0614 Z0.643485 E0.0989968
G1 X43.4122 Y42.2473 Z0.645861 E0.106947
G1 X43.6646 Y41.5307 Z0.648238 E0.0758161
G1 X44.9743 Y42.3315 Z0.650614 E0.153176
G1 X45.4212 Y41.9665 Z0.65299 E0.0575797
G1 X46.343 Y42.5427 Z0.655366 E0.108472
G1 X46.352 Y41.2209 Z0.657743 E0.131896
G1 X46.9109 Y41.0317 Z0.660119 E0.0588759
G1 X47.1297 Y39.6135 Z0.662495 E0.143182
G1 X47.8887 Y39.9722 Z0.664871 E0.0837673
G1 X48.3998 Y39.0728 Z0.667248 E0.103224
G1 X49.1431 Y39.7374 Z0.669624 E0.0994915
G1 X49.7658 Y38.9527 Z0.672 E0.0999567
G1 X50.4213 Y39.7073 Z0.674376 E0.0997403
G1 X51.1363 Y39.0089 Z0.676752 E0.0997319
G1 X51.6859 Y39.883 Z0.679129 E0.103025
G1 X52.4302 Y39.4896 Z0.681505 E0.0840045
G1 X52.7105 Y40.8945 Z0.683881 E0.142951
G1 X53.2788 Y41.0574 Z0.686257 E0.0589888
G1 X53.346 Y42.3754 Z0.688634 E0.131677
G1 X54.2451 Y41.7585 Z0.69101 E0.108798
G1 X54.7099 Y42.1024 Z0.693386 E0.0576958
G1 X55.9876 Y41.2452 Z0.695762 E0.153518
G1 X56.2735 Y41.9493 Z0.698139 E0.0758237
G1 X57.3238 Y41.7178 Z0.700515 E0.107311
G1 X57.3022 Y42.709 Z0.702891 E0.0989298
G1 X58.3045 Y42.6792 Z0.705267 E0.100061
G1 X58.1518 Y43.6679 Z0.707644 E0.0998246
G1 X59.1495 Y43.7631 Z0.71002 E0.10001
G1 X58.8611 Y44.734 Z0.712396 E0.101061
G1 X59.7302 Y45.007 Z0.714772 E0.0909
G1 X58.9728 Y46.0788 Z0.717149 E0.130943
G1 X59.2577 Y46.6218 Z0.719525 E0.0611852
G1 X58.1247 Y47.595 Z0.721901 E0.149035
G1 X58.896 Y47.9575 Z0.724277 E0.0850334
G1 X58.7807 Y48.5507 Z0.726653 E0.0602952
G1 X60.3213 Y48.949 Z0.72903 E0.158776
G1 X60.1103 Y49.6017 Z0.731406 E0.0684466
G1 X61.0508 Y50.2513 Z0.733782 E0.114047
G1 X60.301 Y50.876 Z0.736158 E0.0973851
G1 X60.972 Y51.624 Z0.738535 E0.100259
G1 X60.1178 Y52.1465 Z0.740911 E0.0999099
G1 X60.6891 Y52.9715 Z0.743287 E0.100134
G1 X59.772 Y53.3828 Z0.745663 E0.100281
G1 X60.1822 Y54.2494 Z0.74804 E0.0956683
G1 X58.9939 Y54.4277 Z0.750416 E0.119894
G1 X58.8478 Y55.0609 Z0.752792 E0.0648406
G1 X57.2894 Y54.7933 Z0.755168 E0.157767
G1 X57.2826 Y55.4652 Z0.757545 E0.0670441
G1 X56.5761 Y55.6054 Z0.759921 E0.0718779
G1 X57.2613 Y57.0128 Z0.762297 E0.156182
G1 X56.728 Y57.358 Z0.764673 E0.0633894
G1 X56.9202 Y58.5822 Z0.76705 E0.123655
G1 X55.9859 Y58.4472 Z0.769426 E0.0942007
G1 X55.8497 Y59.4478 Z0.771802 E0.10077
G1 X54.8983 Y59.1332 Z0.774178 E0.0999863
G1 X54.6354 Y60.1026 Z0.776554 E0.100224
G1 X53.7298 Y59.6715 Z0.778931 E0.100083
G1 X53.3415 Y60.5781 Z0.781307 E0.0984157
G1 X52.4612 Y59.8918 Z0.783683 E0.111379
G1 X51.8981 Y60.328 Z0.786059 E0.0710715
G1 X51.0793 Y58.9772 Z0.788436 E0.157612
G1 X50.5298 Y59.1961 Z0.790812 E0.0590188
G1 X49.9614 Y58.4627 Z0.793188 E0.0925782
G1 X49.3474 Y59.7746 Z0.795564 E0.144525
G1 X48.7469 Y59.6776 Z0.797941 E0.0606974
G1 X47.9219 Y60.7549 Z0.800317 E0.135389
G1 X47.4078 Y60.0271 Z0.802693 E0.0889045
G1 X46.5502 Y60.5841 Z0.805069 E0.102035
G1 X46.1753 Y59.6546 Z0.807446 E0.100003
G1 X45.2638 Y60.0788 Z0.809822 E0.10031
G1 X45.0073 Y59.1089 Z0.812198 E0.100104
G1 X44.0543 Y59.4103 Z0.814574 E0.0997345
G1 X43.965 Y58.3541 Z0.81695 E0.105762
G1 X43.1734 Y58.31 Z0.819327 E0.0791032
G1 X43.6062 Y56.8658 Z0.821703 E0.150424
G1 X43.1567 Y56.4896 Z0.824079 E0.0584872
G1 X43.5592 Y55.3896 Z0.826455 E0.116874
G1 X42.3336 Y55.6446 Z0.828832 E0.124907
G1 X42.0219 Y55.1426 Z0.831208 E0.0589665
G1 X40.5535 Y55.2897 Z0.833584 E0.147252
G1 X40.6835 Y54.4815 Z0.83596 E0.0816815
G1 X39.6724 Y54.2 Z0.838337 E0.104724
G1 X40.1365 Y53.3141 Z0.840713 E0.0997906
G1 X39.224 Y52.8902 Z0.843089 E0.100399
G1 X39.799 Y52.0671 Z0.845465 E0.100181
G1 X38.9478 Y51.533 Z0.847842 E0.100268
G1 X39.6532 Y50.785 Z0.850218 E0.102595
G1 X39.057 Y50.149 Z0.852594 E0.0869806
G1 X40.3079 Y49.5297 Z0.85497 E0.139276
G1 X40.3282 Y48.926 Z0.857347 E0.0602718
G1 X41.6637 Y48.5459 Z0.859723 E0.138554
G1 X40.9446 Y47.8338 Z0.862099 E0.100977
G1 X41.2068 Y47.3097 Z0.864475 E0.0584752
G1 X40.0422 Y46.2631 Z0.866851 E0.156236
G1 X40.6153 Y45.7965 Z0.869228 E0.0737418
G1 X40.1201 Y44.8159 Z0.871604 E0.109611
G1 X41.0865 Y44.5923 Z0.87398 E0.0989741
G1 X40.8218 Y43.6202 Z0.876356 E0.100521
G1 X41.8224 Y43.5274 Z0.878733 E0.100266
G1 X41.6809 Y42.5305 Z0.881109 E0.100472
G1 X42.6935 Y42.5705 Z0.883485 E0.101113
G1 X42.7402 Y41.6378 Z0.885861 E0.093178
G1 X43.9396 Y42.0748 Z0.888238 E0.127365
G1 X44.3919 Y41.6376 Z0.890614 E0.0627733
G1 X45.6389 Y42.5334 Z0.89299 E0.153201
G1 X45.8593 Y41.778 Z0.895366 E0.0785226
G1 X46.4952 Y41.8115 Z0.897743 E0.0635355
G1 X46.5138 Y40.217 Z0.900119 E0.159116
G1 X47.1857 Y40.2209 Z0.902495 E0.0670425
G1 X47.5878 Y39.1164 Z0.904871 E0.117291
G1 X48.3773 Y39.6829 Z0.907248 E0.0969639
G1 X48.95 Y38.8509 Z0.909624 E0.100788
G1 X49.6678 Y39.5553 Z0.912 E0.100351
G1 X50.3395 Y38.8037 Z0.914376 E0.100577
G1 X50.9643 Y39.5948 Z0.916752 E0.100586
G1 X51.7171 Y38.9763 Z0.919129 E0.09721
G1 X52.1897 Y40.0503 Z0.921505 E0.117083
G1 X52.8615 Y40.0009 Z0.923881 E0.0672139
G1 X52.9833 Y41.5886 Z0.926257 E0.15888
G1 X53.618 Y41.5123 Z0.928634 E0.0637801
G1 X53.8885 Y42.2501 Z0.93101 E0.0784103
G1 X55.0788 Y41.275 Z0.933386 E0.153534
G1 X55.5611 Y41.681 Z0.935762 E0.0629036
G1 X56.7335 Y41.1674 Z0.938139 E0.127718
G1 X56.8429 Y42.0943 Z0.940515 E0.0931227
G1 X57.8546 Y41.9894 Z0.942891 E0.101487
G1 X57.7807 Y42.9931 Z0.945267 E0.100417
G1 X58.7891 Y43.0222 Z0.947644 E0.100665
G1 X58.5908 Y44.0096 Z0.95002 E0.100491
G1 X59.5736 Y44.1724 Z0.952396 E0.0993972
G1 X59.1458 Y45.1838 Z0.954772 E0.109571
G1 X59.7516 Y45.6148 Z0.957149 E0.074182
G1 X58.66 Y46.7355 Z0.959525 E0.156105
G1 X58.959 Y47.2445 Z0.961901 E0.0589033
G1 X58.2905 Y48.0038 Z0.964277 E0.100946
G1 X59.6513 Y48.3017 Z0.966653 E0.138993
G1 X59.7134 Y48.9068 Z0.96903 E0.0606905
G1 X61.0044 Y49.4496 Z0.971406 E0.139746
G1 X60.4529 Y50.1268 Z0.973782 E0.0871456
G1 X61.2072 Y50.8335 Z0.976158 E0.103137
G1 X60.3941 Y51.426 Z0.978535 E0.100386
G1 X61.0223 Y52.2165 Z0.980911 E0.100751
G1 X60.1402 Y52.7035 Z0.983287 E0.100541
G1 X60.6608 Y53.5644 Z0.985663 E0.100386
G1 X59.6704 Y53.916 Z0.98804 E0.104865
G1 X59.8519 Y54.721 Z0.990416 E0.0823376
G1 X58.3769 Y54.6744 Z0.992792 E0.147249
G1 X58.0969 Y55.2022 Z0.995168 E0.0596147
G1 X56.8564 Y55.0326 Z0.997545 E0.124934
G1 X57.3261 Y56.1119 Z0.999921 E0.117453
G1 X56.8991 Y56.5231 Z1.0023 E0.0591504
G1 X57.4198 Y57.9439 Z1.00467 E0.150988
G1 X56.6292 Y58.0453 Z1.00705 E0.0795375
G1 X56.6031 Y59.1119 Z1.00943 E0.10646
G1 X55.6282 Y58.8785 Z1.0118 E0.100027
G1 X55.4285 Y59.8692 Z1.01418 E0.100846
G1 X54.4862 Y59.5101 Z1.01655 E0.100623
G1 X54.1647 Y60.4675 Z1.01893 E0.10077
G1 X53.2666 Y59.9718 Z1.02131 E0.10236
G1 X52.7924 Y60.736 Z1.02368 E0.0897381
G1 X51.8928 Y59.7182 Z1.02606 E0.135545
G1 X51.2913 Y59.8575 Z1.02844 E0.0616062
G1 X50.5864 Y58.5912 Z1.03081 E0.144612
G1 X50.0566 Y59.3625 Z1.03319 E0.0933676
G1 X49.4847 Y59.1817 Z1.03556 E0.0598437
G1 X48.7435 Y60.5839 Z1.03794 E0.158258
G1 X48.1436 Y60.1858 Z1.04032 E0.0718343
G1 X47.2983 Y60.9275 Z1.04269 E0.112212
G1 X46.8425 Y60.0474 Z1.04507 E0.0988913
G1 X45.9553 Y60.5346 Z1.04745 E0.100997
G1 X45.6204 Y59.5825 Z1.04982 E0.100709
G1 X44.68 Y59.9549 Z1.0522 E0.100925
