
;FLAVOR:Marlin
;TIME:0
;Filament used: 0m
;Layer height: 0
;MINX:0
;MINY:0
;MINZ:0
;MAXX:220
;MAXY:220
;MAXZ:250

; Stonehippo FlowControl Designs © 2022 by George White is licensed under CC BY-SA 4.0.
; To view a copy of this license, visit http://creativecommons.org/licenses/by-sa/4.0/

;Time to print!!!!!
;GCode created with FullControl - tell us what you're printing!
;info@fullcontrol.xyz or tag FullControlXYZ on Twitter/Instagram 

G28 ; home axes
M140 S60 ; set bed temp and continue
M105
M104 S200 ; set hotend temp and continue
M190 S60 ; set bed temp and wait
M105
M109 S200  ; set hotend temp and wait
G90 ; absolute coordinates
G21 ; set units to millimeters
M83 ; relative extrusion
M106 S255 ; set fan speed
M220 S90 ; set speed factor override percentage
M221 S100 ; set extrude factor override percentage
G0 F8000 X0.0 Y0.0 Z10.0
G1 F250 E20.7876
G0 F8000 X10.0 Y10.0 Z0.3
;-----
; END OF STARTING PROCEDURE
;-----

;-----
; START OF PRIMER PROCEDURE
;-----
G0 F8000 Y14.0 Z0.192
G1 F500 X110.0 E9.97804
G1 Y12.0 E0.199561
G1 X10.0 E9.97804
G1 Y14.0 E0.199561
G1 Y16.0 E0.199561
G1 X50.0 E3.99122
G1 Y39.25 E2.31989
;-----
; END OF PRIMER PROCEDURE
;-----

G1 F250 X50.6227 Y40.0194 Z0.194376 E0.0991605
G1 X51.3361 Y39.335 Z0.196752 E0.099427
G1 X51.8503 Y40.2182 Z0.199129 E0.103187
G1 X52.5869 Y39.8376 Z0.201505 E0.084039
G1 X52.82 Y41.2438 Z0.203881 E0.145045
G1 X53.3687 Y41.4138 Z0.206257 E0.0586783
G1 X53.3907 Y42.7262 Z0.208634 E0.134608
G1 X54.2884 Y42.1223 Z0.21101 E0.111383
G1 X54.7307 Y42.4683 Z0.213386 E0.0580278
G1 X56.0141 Y41.6317 Z0.215762 E0.158914
G1 X56.2703 Y42.3321 Z0.218139 E0.0776632
G1 X57.3132 Y42.1147 Z0.220515 E0.111359
G1 X57.2563 Y43.0935 Z0.222891 E0.10287
G1 X58.2481 Y43.0754 Z0.225267 E0.104465
G1 X58.0611 Y44.0471 Z0.227644 E0.104603
G1 X59.0469 Y44.1531 Z0.23002 E0.105194
G1 X58.7261 Y45.1024 Z0.232396 E0.106719
G1 X59.5805 Y45.3824 Z0.234772 E0.0961079
G1 X58.7898 Y46.4196 Z0.237149 E0.139931
G1 X59.055 Y46.9539 Z0.239525 E0.0642423
G1 X57.8927 Y47.8819 Z0.241901 E0.160745
G1 X58.6505 Y48.2476 Z0.244277 E0.0912764
G1 X58.5171 Y48.821 Z0.246653 E0.0640893
G1 X60.045 Y49.2427 Z0.24903 E0.173188
G1 X59.8162 Y49.8731 Z0.251406 E0.0735364
G1 X60.7394 Y50.5308 Z0.253782 E0.124752
G1 X59.9744 Y51.1188 Z0.256158 E0.106565
G1 X60.6273 Y51.8682 Z0.258535 E0.110173
G1 X59.7627 Y52.3511 Z0.260911 E0.110171
G1 X60.3155 Y53.1756 Z0.263287 E0.110817
G1 X59.3928 Y53.5458 Z0.265663 E0.111376
G1 X59.785 Y54.4082 Z0.26804 E0.106516
G1 X58.5995 Y54.5383 Z0.270416 E0.134555
G1 X58.4438 Y55.1526 Z0.272792 E0.0717534
G1 X56.9029 Y54.8268 Z0.275168 E0.178935
G1 X56.887 Y55.4847 Z0.277545 E0.0750245
G1 X56.1876 Y55.5916 Z0.279921 E0.0809408
G1 X56.8432 Y57.0061 Z0.282297 E0.178979
G1 X56.3123 Y57.3244 Z0.284673 E0.0712996
G1 X56.4813 Y58.5433 Z0.28705 E0.142247
G1 X55.5648 Y58.371 Z0.289426 E0.108158
G1 X55.4128 Y59.3585 Z0.291802 E0.116273
G1 X54.4859 Y59.0075 Z0.294178 E0.115739
G1 X54.2087 Y59.9616 Z0.296554 E0.116414
G1 X53.3321 Y59.4971 Z0.298931 E0.116638
G1 X52.9318 Y60.3864 Z0.301307 E0.115039
G1 X52.0893 Y59.6692 Z0.303683 E0.130961
G1 X51.5292 Y60.0846 Z0.306059 E0.08281
G1 X50.7697 Y58.7069 Z0.308436 E0.187441
G1 X50.2304 Y58.9073 Z0.310812 E0.0687793
G1 X49.7025 Y58.1563 Z0.313188 E0.11009
G1 X49.0637 Y59.449 Z0.315564 E0.173505
G1 X48.4831 Y59.3349 Z0.317941 E0.0714252
G1 X47.6399 Y60.388 Z0.320317 E0.163401
G1 X47.1659 Y59.6481 Z0.322693 E0.106787
G1 X46.3061 Y60.1817 Z0.325069 E0.123362
G1 X45.9774 Y59.2465 Z0.327446 E0.121242
G1 X45.0673 Y59.6471 Z0.329822 E0.122015
G1 X44.8577 Y58.6772 Z0.332198 E0.12215
G1 X43.909 Y58.9552 Z0.334574 E0.122082
G1 X43.8689 Y57.9063 Z0.33695 E0.130037
G1 X43.0921 Y57.8457 Z0.339327 E0.0968382
G1 X43.5863 Y56.4287 Z0.341703 E0.187104
G1 X43.1616 Y56.0494 Z0.344079 E0.0712209
G1 X43.6128 Y54.977 Z0.346455 E0.14597
G1 X42.389 Y55.2027 Z0.348832 E0.156624
G1 X42.1041 Y54.7042 Z0.351208 E0.0724999
G1 X40.6395 Y54.8138 Z0.353584 E0.186018
G1 X40.8052 Y54.0256 Z0.35596 E0.102324
G1 X39.811 Y53.7234 Z0.358337 E0.13243
G1 X40.3118 Y52.8705 Z0.360713 E0.126449
G1 X39.4194 Y52.4298 Z0.363089 E0.127631
G1 X40.0272 Y51.6444 Z0.365465 E0.127739
G1 X39.1983 Y51.0958 Z0.367842 E0.128246
G1 X39.9319 Y50.3907 Z0.370218 E0.13169
G1 X39.3598 Y49.7496 Z0.372594 E0.111543
G1 X40.632 Y49.1939 Z0.37497 E0.180766
G1 X40.6729 Y48.6079 Z0.377347 E0.0767109
G1 X42.0188 Y48.2949 Z0.379723 E0.181016
G1 X41.3231 Y47.5726 Z0.382099 E0.131774
G1 X41.6001 Y47.0749 Z0.384475 E0.0750636
G1 X40.4704 Y46.0 Z0.386851 E0.206118
G1 X41.0542 Y45.5708 Z0.389228 E0.0960588
G1 X40.5895 Y44.5864 Z0.391604 E0.144758
G1 X41.5552 Y44.4145 Z0.39398 E0.130816
G1 X41.3192 Y43.4463 Z0.396356 E0.133301
G1 X42.3124 Y43.4058 Z0.398733 E0.133347
G1 X42.1993 Y42.4162 Z0.401109 E0.134022
G1 X43.1976 Y42.5078 Z0.403485 E0.135291
G1 X43.2691 Y41.5885 Z0.405861 E0.124806
G1 X44.4367 Y42.0831 Z0.408238 E0.172128
G1 X44.8924 Y41.6737 Z0.410614 E0.0834055
G1 X46.0874 Y42.6277 Z0.41299 E0.20877
G1 X46.3233 Y41.8893 Z0.415366 E0.106142
G1 X46.9417 Y41.9554 Z0.417743 E0.0854042
G1 X47.0103 Y40.3684 Z0.420119 E0.218758
G1 X47.6655 Y40.4047 Z0.422495 E0.0906243
G1 X48.0971 Y39.3212 Z0.424871 E0.161538
G1 X48.8459 Y39.9227 Z0.427248 E0.133412
G1 X49.4367 Y39.1168 Z0.429624 E0.13919
G1 F500 X50.1076 Y39.8513 Z0.432 E0.0992597
G1 X50.7941 Y39.1282 Z0.434376 E0.0994898
G1 X51.3683 Y39.9435 Z0.436752 E0.0994974
G1 X52.1306 Y39.3551 Z0.439129 E0.0960865
G1 X52.5404 Y40.4448 Z0.441505 E0.11616
G1 X53.1979 Y40.4198 Z0.443881 E0.0656471
G1 X53.2348 Y42.0055 Z0.446257 E0.158259
G1 X53.8568 Y41.9502 Z0.448634 E0.0623053
G1 X54.0796 Y42.6915 Z0.45101 E0.0772297
G1 X55.2974 Y41.7612 Z0.453386 E0.152909
G1 X55.7476 Y42.1788 Z0.455762 E0.0612622
G1 X56.9287 Y41.7078 Z0.458139 E0.126883
G1 X56.9843 Y42.6277 Z0.460515 E0.0919506
G1 X57.9881 Y42.5567 Z0.462891 E0.100409
G1 X57.858 Y43.5436 Z0.465267 E0.0993255
G1 X58.854 Y43.6055 Z0.467644 E0.0995768
G1 X58.6016 Y44.5692 Z0.47002 E0.0993995
G1 X59.5676 Y44.7627 Z0.472396 E0.098296
G1 X59.0863 Y45.7386 Z0.474772 E0.108578
G1 X59.6649 Y46.182 Z0.477149 E0.0727393
G1 X58.5168 Y47.2351 Z0.479525 E0.155454
G1 X58.7871 Y47.7414 Z0.481901 E0.0572653
G1 X58.08 Y48.4521 Z0.484277 E0.100031
G1 X59.4226 Y48.7972 Z0.486653 E0.138317
G1 X59.4544 Y49.388 Z0.48903 E0.0590289
G1 X60.7177 Y49.975 Z0.491406 E0.138994
G1 X60.135 Y50.6087 Z0.493782 E0.0858973
G1 X60.856 Y51.3343 Z0.496158 E0.102076
G1 X60.0179 Y51.8707 Z0.498535 E0.0992924
G1 X60.6106 Y52.6746 Z0.500911 E0.0996627
G1 X59.7104 Y53.1024 Z0.503287 E0.0994489
G1 X60.194 Y53.9721 Z0.505663 E0.0992938
G1 X59.194 Y54.2597 Z0.50804 E0.103821
G1 X59.343 Y55.0579 Z0.510416 E0.081023
G1 X57.8805 Y54.9242 Z0.512792 E0.146542
G1 X57.584 Y55.4236 Z0.515168 E0.057951
G1 X56.3636 Y55.1791 Z0.517545 E0.124188
G1 X56.7898 Y56.2678 Z0.519921 E0.116664
G1 X56.3544 Y56.6451 Z0.522297 E0.0574877
G1 X56.8151 Y58.0793 Z0.524673 E0.150305
G1 X56.0332 Y58.1303 Z0.52705 E0.0781786
G1 X55.9664 Y59.1848 Z0.529426 E0.105434
G1 X55.0188 Y58.8934 Z0.531802 E0.0989289
G1 X54.7831 Y59.865 Z0.534178 E0.0997573
G1 X53.8755 Y59.4512 Z0.536554 E0.0995308
G1 X53.5204 Y60.3849 Z0.538931 E0.0996805
G1 X52.6649 Y59.8385 Z0.541307 E0.101287
G1 X52.1675 Y60.5731 Z0.543683 E0.0885228
G1 X51.3386 Y59.5068 Z0.546059 E0.134761
G1 X50.7472 Y59.6125 Z0.548436 E0.0599513
G1 X50.1268 Y58.31 Z0.550812 E0.143954
G1 X49.5737 Y59.0524 Z0.553188 E0.0923773
G1 X49.029 Y58.8428 Z0.555564 E0.058239
G1 X48.2304 Y60.2058 Z0.557941 E0.157621
G1 X47.6689 Y59.7795 Z0.560317 E0.0703455
G1 X46.8008 Y60.4789 Z0.562693 E0.111242
G1 X46.4088 Y59.5808 Z0.565069 E0.0977797
G1 X45.5116 Y60.0254 Z0.567446 E0.0999088
G1 X45.2438 Y59.0636 Z0.569822 E0.0996165
G1 X44.2987 Y59.3921 Z0.572198 E0.0998358
G1 X44.1568 Y58.3981 Z0.574574 E0.100188
G1 X43.226 Y58.5467 Z0.57695 E0.0940437
G1 X43.4101 Y57.3265 Z0.579327 E0.123133
G1 X42.8757 Y56.9912 Z0.581703 E0.0629559
G1 X43.5509 Y55.5842 Z0.584079 E0.155721
G1 X42.8441 Y55.455 Z0.586455 E0.0716964
G1 X42.8326 Y54.7888 Z0.588832 E0.066488
G1 X41.2761 Y55.073 Z0.591208 E0.157879
G1 X41.1248 Y54.4458 Z0.593584 E0.0643694
G1 X39.9343 Y54.2804 Z0.59596 E0.119936
G1 X40.3372 Y53.4155 Z0.598337 E0.0952051
G1 X39.4158 Y53.0143 Z0.600713 E0.100279
G1 X39.9798 Y52.1896 Z0.603089 E0.0996984
G1 X39.1202 Y51.6757 Z0.605465 E0.0999309
G1 X39.7842 Y50.9271 Z0.607842 E0.0998473
G1 X39.0281 Y50.3094 Z0.610218 E0.0974219
G1 X39.9621 Y49.6573 Z0.612594 E0.11366
G1 X39.7446 Y49.0079 Z0.61497 E0.0683368
G1 X41.28 Y48.6039 Z0.617347 E0.158413
G1 X41.1586 Y48.013 Z0.619723 E0.0601972
G1 X41.9248 Y47.6483 Z0.622099 E0.0846682
G1 X40.7842 Y46.6808 Z0.624475 E0.149238
G1 X41.0635 Y46.137 Z0.626851 E0.061001
G1 X40.2988 Y45.0681 Z0.629228 E0.13114
G1 X41.1638 Y44.7913 Z0.631604 E0.0906215
G1 X40.869 Y43.8205 Z0.63398 E0.101231
G1 X41.8637 Y43.7209 Z0.636356 E0.0997461
G1 X41.7054 Y42.7311 Z0.638733 E0.100017
G1 X42.7054 Y42.7563 Z0.641109 E0.0998211
G1 X42.6791 Y41.763 Z0.643485 E0.0991453
G1 X43.7281 Y41.9896 Z0.645861 E0.107083
G1 X44.0109 Y41.2823 Z0.648238 E0.0760002
G1 X45.2889 Y42.1343 Z0.650614 E0.153258
G1 X45.752 Y41.7868 Z0.65299 E0.0577707
G1 X46.6512 Y42.3994 Z0.655366 E0.108564
G1 X46.7161 Y41.0783 Z0.657743 E0.131974
G1 X47.2842 Y40.9116 Z0.660119 E0.0590745
G1 X47.5637 Y39.5032 Z0.662495 E0.143274
G1 X48.3092 Y39.8928 Z0.664871 E0.0839384
G1 X48.8597 Y39.0153 Z0.667248 E0.103366
G1 X49.5767 Y39.7104 Z0.669624 E0.0996398
G1 X50.2342 Y38.9527 Z0.672 E0.100104
G1 X50.8593 Y39.7346 Z0.674376 E0.0998885
G1 X51.6056 Y39.0676 Z0.676752 E0.0998801
G1 X52.1194 Y39.9648 Z0.679129 E0.103168
G1 X52.8822 Y39.6044 Z0.681505 E0.0841754
G1 X53.1034 Y41.0208 Z0.683881 E0.143045
G1 X53.6659 Y41.209 Z0.686257 E0.0591877
G1 X53.6771 Y42.5294 Z0.688634 E0.131755
G1 X54.6041 Y41.9535 Z0.69101 E0.10889
G1 X55.0549 Y42.3186 Z0.693386 E0.0578874
G1 X56.371 Y41.5202 Z0.695762 E0.153601
G1 X56.627 Y42.2376 Z0.698139 E0.076009
G1 X57.6882 Y42.055 Z0.700515 E0.107448
G1 X57.6236 Y43.0458 Z0.702891 E0.0990795
G1 X58.6277 Y43.063 Z0.705267 E0.100209
G1 X58.4316 Y44.0456 Z0.707644 E0.0999732
G1 X59.4252 Y44.188 Z0.71002 E0.100159
G1 X59.0937 Y45.1466 Z0.712396 E0.101207
G1 X59.9502 Y45.4614 Z0.714772 E0.0910609
G1 X59.145 Y46.499 Z0.717149 E0.131049
G1 X59.405 Y47.0566 Z0.719525 E0.0613898
G1 X58.2283 Y47.9777 Z0.721901 E0.149108
G1 X58.9821 Y48.3778 Z0.724277 E0.0851514
G1 X58.8394 Y48.9668 Z0.726653 E0.06047
G1 X60.3595 Y49.4395 Z0.72903 E0.158852
G1 X60.1178 Y50.0836 Z0.731406 E0.0686456
G1 X61.0261 Y50.7795 Z0.733782 E0.114174
G1 X60.247 Y51.3699 Z0.736158 E0.0975374
G1 X60.8808 Y52.1515 Z0.738535 E0.100407
G1 X60.0019 Y52.6342 Z0.740911 E0.100059
G1 X60.5318 Y53.4883 Z0.743287 E0.100283
G1 X59.595 Y53.8564 Z0.745663 E0.10043
G1 X59.9613 Y54.7441 Z0.74804 E0.0958231
G1 X58.7647 Y54.8657 Z0.750416 E0.120013
G1 X58.5864 Y55.4927 Z0.752792 E0.065045
G1 X57.0421 Y55.1498 Z0.755168 E0.15784
G1 X57.0007 Y55.8219 Z0.757545 E0.0671978
G1 X56.2868 Y55.9281 Z0.759921 E0.07202
G1 X56.899 Y57.3694 Z0.762297 E0.156255
G1 X56.3474 Y57.6887 Z0.764673 E0.0635954
G1 X56.4756 Y58.9225 Z0.76705 E0.12377
G1 X55.5475 Y58.7413 Z0.769426 E0.094358
G1 X55.3584 Y59.7349 Z0.771802 E0.100918
G1 X54.4225 Y59.3728 Z0.774178 E0.100136
G1 X54.1079 Y60.3283 Z0.776554 E0.100373
G1 X53.2236 Y59.8517 Z0.778931 E0.100233
G1 X52.7867 Y60.7377 Z0.781307 E0.0985673
G1 X51.9412 Y60.0068 Z0.783683 E0.11151
G1 X51.3539 Y60.4133 Z0.786059 E0.0712669
G1 X50.6051 Y59.0216 Z0.788436 E0.15769
G1 X50.0429 Y59.2112 Z0.790812 E0.0592019
G1 X49.5124 Y58.4487 Z0.793188 E0.0926875
G1 X48.8276 Y59.7259 Z0.795564 E0.144599
G1 X48.2311 Y59.5967 Z0.797941 E0.0609017
G1 X47.3474 Y60.6277 Z0.800317 E0.135491
G1 X46.8711 Y59.8728 Z0.802693 E0.0890701
G1 X45.9825 Y60.3819 Z0.805069 E0.102182
G1 X45.6564 Y59.4326 Z0.807446 E0.100153
G1 X44.7212 Y59.8055 Z0.809822 E0.100459
G1 X44.5161 Y58.8219 Z0.812198 E0.100254
G1 X43.5461 Y59.0693 Z0.814574 E0.0998849
G1 X43.5133 Y58.0084 Z0.81695 E0.105903
G1 X42.7237 Y57.9192 Z0.819327 E0.079285
G1 X43.2344 Y56.4998 Z0.821703 E0.150511
G1 X42.8053 Y56.0976 Z0.824079 E0.0586834
G1 X43.2675 Y55.0204 Z0.826455 E0.116962
G1 X42.0284 Y55.2048 Z0.828832 E0.12499
G1 X41.7444 Y54.6843 Z0.831208 E0.0591652
G1 X40.2691 Y54.7462 Z0.833584 E0.147342
G1 X40.4438 Y53.9446 Z0.83596 E0.0818593
G1 X39.4496 Y53.6039 Z0.838337 E0.104866
G1 X39.9629 Y52.7438 Z0.840713 E0.0999415
G1 X39.0757 Y52.2661 Z0.843089 E0.100549
G1 X39.6967 Y51.4753 Z0.845465 E0.100331
G1 X38.8776 Y50.8906 Z0.847842 E0.100418
G1 X39.6251 Y50.1825 Z0.850218 E0.102742
G1 X39.067 Y49.5107 Z0.852594 E0.08715
G1 X40.3521 Y48.9633 Z0.85497 E0.139375
G1 X40.4079 Y48.3598 Z0.857347 E0.060475
G1 X41.7639 Y48.0571 Z0.859723 E0.138631
G1 X41.0886 Y47.302 Z0.862099 E0.101078
G1 X41.382 Y46.7925 Z0.864475 E0.0586651
G1 X40.2825 Y45.6766 Z0.866851 E0.156317
G1 X40.8834 Y45.243 Z0.869228 E0.0739343
G1 X40.4489 Y44.2326 Z0.871604 E0.109747
G1 X41.4282 Y44.0655 Z0.87398 E0.0991266
G1 X41.2239 Y43.0775 Z0.876356 E0.100671
G1 X42.2297 Y43.0437 Z0.878733 E0.100417
G1 X42.1506 Y42.0383 Z0.881109 E0.100622
G1 X43.1605 Y42.1384 Z0.883485 E0.101263
G1 X43.266 Y41.2089 Z0.885861 E0.0933387
G1 X44.438 Y41.7173 Z0.888238 E0.127478
G1 X44.9183 Y41.3077 Z0.890614 E0.0629808
G1 X46.1092 Y42.2779 Z0.89299 E0.153275
G1 X46.3777 Y41.5368 Z0.895366 E0.0786542
G1 X47.0121 Y41.6091 Z0.897743 E0.0637029
G1 X47.1321 Y40.0182 Z0.900119 E0.159192
G1 X47.8045 Y40.0637 Z0.902495 E0.067247
G1 X48.2774 Y38.9862 Z0.904871 E0.117416
G1 X49.0318 Y39.6011 Z0.907248 E0.0971197
G1 X49.6583 Y38.8068 Z0.909624 E0.100939
G1 X50.3322 Y39.5553 Z0.912 E0.100502
G1 X51.0526 Y38.8482 Z0.914376 E0.100728
G1 X51.6279 Y39.6778 Z0.916752 E0.100737
G1 X52.421 Y39.1092 Z0.919129 E0.0973656
G1 X52.8258 Y40.2119 Z0.921505 E0.117209
G1 X53.5014 Y40.2067 Z0.923881 E0.0674183
G1 X53.5221 Y41.7996 Z0.926257 E0.158956
G1 X54.1621 Y41.7655 Z0.928634 E0.0639476
G1 X54.3856 Y42.5203 Z0.93101 E0.0785427
G1 X55.6388 Y41.626 Z0.933386 E0.153609
G1 X56.0951 Y42.064 Z0.935762 E0.0631119
G1 X57.3005 Y41.63 Z0.938139 E0.127831
G1 X57.3502 Y42.5636 Z0.940515 E0.0932846
G1 X58.3682 Y42.5275 Z0.942891 E0.101637
G1 X58.2292 Y43.5258 Z0.945267 E0.100569
G1 X59.2349 Y43.6239 Z0.947644 E0.100816
G1 X58.9723 Y44.5977 Z0.95002 E0.100642
G1 X59.943 Y44.8279 Z0.952396 E0.0995505
G1 X59.4493 Y45.8103 Z0.954772 E0.109709
G1 X60.0255 Y46.2832 Z0.957149 E0.0743753
G1 X58.8612 Y47.3295 Z0.959525 E0.156187
G1 X59.1255 Y47.8595 Z0.961901 E0.0590943
G1 X58.4073 Y48.5735 Z0.964277 E0.101048
G1 X59.7448 Y48.9655 Z0.966653 E0.139071
G1 X59.7655 Y49.5754 Z0.96903 E0.0608952
G1 X61.0162 Y50.2078 Z0.971406 E0.139846
G1 X60.4192 Y50.8477 Z0.973782 E0.0873171
G1 X61.1226 Y51.6071 Z0.976158 E0.103285
G1 X60.27 Y52.144 Z0.978535 E0.100538
G1 X60.8412 Y52.9785 Z0.980911 E0.100903
G1 X59.9266 Y53.405 Z0.983287 E0.100693
G1 X60.385 Y54.3023 Z0.985663 E0.100538
G1 X59.3715 Y54.5857 Z0.98804 E0.10501
G1 X59.4948 Y55.4034 Z0.990416 E0.0825172
G1 X58.0256 Y55.2547 Z0.992792 E0.147341
G1 X57.7079 Y55.763 Z0.995168 E0.0598156
G1 X56.4813 Y55.5072 Z0.997545 E0.125019
G1 X56.8717 Y56.6187 Z0.999921 E0.117543
G1 X56.415 Y56.9997 Z1.0023 E0.059349
G1 X56.831 Y58.4556 Z1.00467 E0.151077
G1 X56.0334 Y58.5012 Z1.00705 E0.0797224
G1 X55.9286 Y59.5645 Z1.00943 E0.106604
G1 X54.9712 Y59.2623 Z1.0118 E0.100181
G1 X54.6982 Y60.237 Z1.01418 E0.100998
G1 X53.7824 Y59.8113 Z1.01655 E0.100776
G1 X53.3898 Y60.7435 Z1.01893 E0.100922
G1 X52.5281 Y60.1841 Z1.02131 E0.10251
G1 X51.997 Y60.912 Z1.02368 E0.0899064
G1 X51.1724 Y59.8312 Z1.02606 E0.13565
G1 X50.5602 Y59.9259 Z1.02844 E0.0618134
G1 X49.9489 Y58.611 Z1.03081 E0.144689
G1 X49.3615 Y59.3408 Z1.03319 E0.0934797
G1 X48.8027 Y59.1179 Z1.03556 E0.0600303
G1 X47.957 Y60.4606 Z1.03794 E0.158338
G1 X47.3864 Y60.0183 Z1.04032 E0.0720335
G1 X46.4857 Y60.6939 Z1.04269 E0.112347
G1 X46.0952 Y59.7813 Z1.04507 E0.0990469
G1 X45.1717 Y60.1993 Z1.04745 E0.101149
G1 X44.9077 Y59.2235 Z1.04982 E0.100862
G1 X43.9398 Y59.5224 Z1.0522 E0.101077
